; generated by PrusaSlicer 2.5.0+win64 on 2022-11-06 at 19:11:29 UTC


;
;
; 

; external perimeters extrusion width = 0.45mm
; perimeters extrusion width = 0.45mm
; infill extrusion width = 0.45mm
; solid infill extrusion width = 0.45mm
; top infill extrusion width = 0.40mm
; first layer extrusion width = 0.42mm

; external perimeters extrusion width = 0.45mm
; perimeters extrusion width = 0.45mm
; infill extrusion width = 0.45mm
; solid infill extrusion width = 0.45mm
; top infill extrusion width = 0.40mm
; first layer extrusion width = 0.42mm

; external perimeters extrusion width = 0.45mm
; perimeters extrusion width = 0.45mm
; infill extrusion width = 0.45mm
; solid infill extrusion width = 0.45mm
; top infill extrusion width = 0.40mm
; first layer extrusion width = 0.42mm

; external perimeters extrusion width = 0.45mm
; perimeters extrusion width = 0.45mm
; infill extrusion width = 0.45mm
; solid infill extrusion width = 0.45mm
; top infill extrusion width = 0.40mm
; first layer extrusion width = 0.42mm

; external perimeters extrusion width = 0.45mm
; perimeters extrusion width = 0.45mm
; infill extrusion width = 0.45mm
; solid infill extrusion width = 0.45mm
; top infill extrusion width = 0.40mm
; first layer extrusion width = 0.42mm

M73 P0 R63
M73 Q0 S63
M201 X1000 Y1000 Z200 E5000 ; sets maximum accelerations, mm/sec^2
M203 X200 Y200 Z12 E120 ; sets maximum feedrates, mm / sec
M204 P1250 R1250 T1250 ; sets acceleration (P, T) and retract acceleration (R), mm/sec^2
M205 X8.00 Y8.00 Z0.40 E4.50 ; sets the jerk limits, mm/sec
M205 S0 T0 ; sets the minimum extruding and travel feed rate, mm/sec
M107
;TYPE:Custom
M862.3 P "MK3S" ; printer model check
M862.1 P0.4 ; nozzle diameter check
M115 U3.11.0 ; tell printer latest fw version
G90 ; use absolute coordinates
M83 ; extruder relative mode
M104 S240 ; set extruder temp
M140 S85 ; set bed temp
M190 S85 ; wait for bed temp
M109 S240 ; wait for extruder temp
G28 W ; home all without mesh bed level
G80 ; mesh bed leveling

G1 Z0.2 F720
G1 Y-3 F1000 ; go outside print area
G92 E0
G1 X60 E9 F1000 ; intro line
G1 X100 E12.5 F1000 ; intro line

G92 E0
M221 S95

; Don't change E values below. Excessive value can damage the printer.
M907 E430 ; set extruder motor current
G21 ; set units to millimeters
G90 ; use absolute coordinates
M83 ; use relative distances for extrusion
M900 K0.08 ; Filament gcode LA 1.5
M900 K45 ; Filament gcode LA 1.0
M107
;LAYER_CHANGE
;Z:0.25
;HEIGHT:0.25
;BEFORE_LAYER_CHANGE
G92 E0.0
;0.25


G1 E-1 F2100
G1 Z.2 F720
G1 Z.25
;AFTER_LAYER_CHANGE
;0.25
G1 Z.45
G1 X78.681 Y79.76 F10800
G1 Z.25 F720
G1 E1 F2100
M204 S800
;TYPE:Skirt/Brim
;WIDTH:0.42
G1 F1200
G1 X79.539 Y78.935 E.04533
G1 X95.556 Y66.195 E.77928
G1 X97.535 Y65.129 E.08559
G1 X99.519 Y64.811 E.07652
G1 X150.519 Y64.811 E1.94196
G1 X152.732 Y65.208 E.08559
M73 P0 R62
G1 X154.48 Y66.193 E.07641
G1 X170.457 Y78.889 E.77705
G1 X171.942 Y80.576 E.08559
G1 X172.748 Y82.675 E.08559
G1 X172.862 Y83.852 E.04506
G1 X172.885 Y117.167 E1.26855
G1 X172.833 Y118.05 E.03367
G1 X172.656 Y119.083 E.0399
G1 X172.373 Y120.047 E.03825
G1 X171.886 Y121.131 E.04527
G1 X161.032 Y141.764 E.8877
G1 X159.651 Y143.537 E.08559
G1 X157.74 Y144.72 E.08559
G1 X155.401 Y145.166 E.09066
G1 X94.664 Y145.189 E2.3127
G1 X92.452 Y144.792 E.08559
G1 X90.515 Y143.651 E.08559
G1 X89.033 Y141.792 E.0905
G1 X78.162 Y121.181 E.88731
G1 X77.888 Y120.613 E.02402
G1 X77.423 Y119.273 E.054
G1 X77.213 Y118.124 E.04448
G1 X77.157 Y117.222 E.03441
G1 X77.136 Y83.907 E1.26855
G1 X77.537 Y81.695 E.08559
G1 X78.65 Y79.812 E.08331
M204 S1000
; printing object LED-Stripe-V15-14-P3.stl id:2 copy 0
;WIPE_START
G1 F8640
G1 X79.539 Y78.935 E-.28826
G1 X81.782 Y77.151 E-.66174
;WIPE_END
G1 E-.05 F2100
G1 Z.45 F720
G1 X146.907 Y126.309 F10800
G1 Z.25 F720
G1 E1 F2100
M204 S800
;TYPE:Perimeter
;WIDTH:0.419999
G1 F1200
G1 X153.889 Y126.309 E.26585
G1 X153.889 Y137.291 E.41816
G1 X146.907 Y137.291 E.26585
G1 X146.907 Y126.369 E.41588
M204 S1000
G1 X146.541 Y125.943 F10800
M204 S800
G1 F1200
G1 X154.255 Y125.943 E.29375
G1 X154.255 Y137.657 E.44606
G1 X146.541 Y137.657 E.29375
G1 X146.541 Y126.003 E.44378
M204 S1000
G1 X146.174 Y125.576 F10800
M204 S800
G1 F1200
G1 X154.622 Y125.576 E.32165
G1 X154.622 Y138.023 E.47396
G1 X146.174 Y138.023 E.32165
G1 X146.174 Y125.636 E.47168
M204 S1000
G1 X145.808 Y125.21 F10800
M204 S800
;TYPE:External perimeter
G1 F1200
G1 X154.988 Y125.21 E.34955
G1 X154.988 Y138.39 E.50186
G1 X145.808 Y138.39 E.34955
G1 X145.808 Y125.27 E.49958
M204 S1000
G1 X146.188 Y125.336 F10800
;WIPE_START
G1 F8640
G1 X149.922 Y125.243 E-.95
;WIPE_END
G1 E-.05 F2100
G1 Z.45 F720
G1 X153.016 Y126.419 F10800
G1 Z.25 F720
G1 E1 F2100
M204 S800
;TYPE:Solid infill
;WIDTH:0.43072
G1 F1200
G1 X153.614 Y127.017 E.03317
G1 X153.614 Y127.55 E.0209
G1 X152.647 Y126.584 E.05359
G1 X152.114 Y126.584 E.0209
G1 X153.614 Y128.084 E.08315
G1 X153.614 Y128.617 E.0209
G1 X151.581 Y126.584 E.1127
G1 X151.048 Y126.584 E.0209
G1 X153.614 Y129.15 E.14226
G1 X153.614 Y129.684 E.0209
G1 X150.514 Y126.584 E.17181
G1 X149.981 Y126.584 E.0209
G1 X153.614 Y130.217 E.20137
G1 X153.614 Y130.75 E.0209
G1 X149.448 Y126.584 E.23093
G1 X148.915 Y126.584 E.0209
G1 X153.614 Y131.283 E.26048
G1 X153.614 Y131.817 E.0209
G1 X148.381 Y126.584 E.29004
G1 X147.848 Y126.584 E.0209
G1 X153.614 Y132.35 E.31959
G1 X153.614 Y132.883 E.0209
G1 X147.315 Y126.584 E.34915
G1 X147.182 Y126.584 E.00521
G1 X147.182 Y126.984 E.01569
G1 X153.614 Y133.416 E.35652
G1 X153.614 Y133.95 E.0209
G1 X147.182 Y127.517 E.35652
G1 X147.182 Y128.05 E.0209
G1 X153.614 Y134.483 E.35652
G1 X153.614 Y135.016 E.0209
G1 X147.182 Y128.584 E.35652
G1 X147.182 Y129.117 E.0209
G1 X153.614 Y135.549 E.35652
G1 X153.614 Y136.083 E.0209
M73 Q1 S63
G1 X147.182 Y129.65 E.35652
G1 X147.182 Y130.183 E.0209
M73 P1 R62
G1 X153.614 Y136.616 E.35652
G1 X153.614 Y137.016 E.01568
G1 X153.481 Y137.016 E.00522
G1 X147.182 Y130.717 E.34914
G1 X147.182 Y131.25 E.0209
G1 X152.948 Y137.016 E.31959
G1 X152.415 Y137.016 E.0209
G1 X147.182 Y131.783 E.29003
G1 X147.182 Y132.316 E.0209
G1 X151.881 Y137.016 E.26048
G1 X151.348 Y137.016 E.0209
G1 X147.182 Y132.85 E.23092
G1 X147.182 Y133.383 E.0209
G1 X150.815 Y137.016 E.20136
G1 X150.282 Y137.016 E.0209
M73 Q1 S62
G1 X147.182 Y133.916 E.17181
G1 X147.182 Y134.45 E.0209
G1 X149.748 Y137.016 E.14225
G1 X149.215 Y137.016 E.0209
G1 X147.182 Y134.983 E.11269
G1 X147.182 Y135.516 E.0209
G1 X148.682 Y137.016 E.08314
G1 X148.149 Y137.016 E.0209
G1 X147.182 Y136.049 E.05358
G1 X147.182 Y136.583 E.0209
G1 X147.78 Y137.181 E.03316
M204 S1000
; stop printing object LED-Stripe-V15-14-P3.stl id:2 copy 0
; printing object LED-Stripe-V15-14-P4.stl id:3 copy 0
;WIPE_START
G1 F8640
G1 X147.182 Y136.583 E-.19539
G1 X147.182 Y136.049 E-.12313
G1 X148.149 Y137.016 E-.31568
G1 X148.682 Y137.016 E-.12313
G1 X148.092 Y136.426 E-.19267
;WIPE_END
G1 E-.05 F2100
G1 Z.45 F720
G1 X158.028 Y85.383 F10800
G1 Z.25 F720
G1 E1 F2100
M204 S800
;TYPE:Perimeter
;WIDTH:0.419999
G1 F1200
G1 X164.987 Y85.383 E.26498
G1 X164.987 Y91.101 E.21773
G1 X165.01 Y91.242 E.00545
G1 X165.01 Y117.101 E.98467
G1 X164.939 Y117.41 E.01205
G1 X164.762 Y117.587 E.00956
G1 X164.453 Y117.658 E.01205
G1 X158.585 Y117.658 E.22345
G1 X158.276 Y117.587 E.01205
G1 X158.099 Y117.41 E.00956
G1 X158.028 Y117.101 E.01205
G1 X158.028 Y85.443 E1.20549
M204 S1000
G1 X157.662 Y85.016 F10800
M204 S800
G1 F1200
G1 X165.353 Y85.016 E.29288
G1 X165.353 Y91.101 E.23168
G1 X165.376 Y91.207 E.00416
G1 X165.376 Y117.076 E.98501
G1 X165.359 Y117.315 E.00914
G1 X165.258 Y117.594 E.01128
G1 X165.067 Y117.821 E.01128
G1 X164.811 Y117.969 E.01128
G1 X164.469 Y118.025 E.01318
G1 X158.61 Y118.025 E.22309
G1 X158.371 Y118.007 E.00914
G1 X158.093 Y117.906 E.01128
G1 X157.866 Y117.715 E.01128
G1 X157.718 Y117.459 E.01128
G1 X157.662 Y117.117 E.01318
G1 X157.662 Y85.076 E1.22005
M204 S1000
G1 X157.295 Y84.65 F10800
M204 S800
G1 F1200
G1 X165.72 Y84.65 E.32077
G1 X165.72 Y91.101 E.24563
G1 X165.743 Y91.173 E.0029
G1 X165.743 Y117.076 E.98632
G1 X165.721 Y117.379 E.01158
G1 X165.576 Y117.778 E.01614
G1 X165.304 Y118.102 E.01614
G1 X164.937 Y118.314 E.01614
G1 X164.485 Y118.391 E.01743
G1 X158.61 Y118.391 E.2237
G1 X158.307 Y118.369 E.01158
G1 X157.909 Y118.224 E.01614
G1 X157.584 Y117.952 E.01614
G1 X157.372 Y117.585 E.01614
G1 X157.295 Y117.133 E.01743
G1 X157.295 Y84.71 E1.23461
M204 S1000
G1 X156.929 Y84.283 F10800
M204 S800
;TYPE:External perimeter
G1 F1200
G1 X166.086 Y84.283 E.34867
G1 X166.086 Y91.101 E.25958
G1 X166.109 Y91.139 E.0017
G1 X166.109 Y117.076 E.98763
G1 X166.083 Y117.443 E.01401
G1 X165.895 Y117.961 E.02101
G1 X165.54 Y118.384 E.02101
G1 X165.062 Y118.66 E.02101
G1 X164.501 Y118.757 E.02169
G1 X158.61 Y118.757 E.22431
G1 X158.243 Y118.732 E.01401
G1 X157.725 Y118.543 E.02101
G1 X157.302 Y118.188 E.02101
G1 X157.026 Y117.711 E.02101
G1 X156.929 Y117.149 E.02169
G1 X156.929 Y84.343 E1.24917
M204 S1000
G1 X157.276 Y84.483 F10800
;WIPE_START
G1 F8640
G1 X161.043 Y84.316 E-.95
;WIPE_END
G1 E-.05 F2100
G1 Z.45 F720
G1 X164.131 Y85.492 F10800
G1 Z.25 F720
G1 E1 F2100
M204 S800
;TYPE:Solid infill
;WIDTH:0.422736
G1 F1200
G1 X164.712 Y86.074 E.03155
G1 X164.712 Y86.596 E.02002
G1 X163.774 Y85.657 E.05092
G1 X163.252 Y85.657 E.02002
G1 X164.712 Y87.118 E.07924
G1 X164.712 Y87.64 E.02002
G1 X162.73 Y85.657 E.10756
G1 X162.208 Y85.657 E.02002
G1 X164.712 Y88.162 E.13588
G1 X164.712 Y88.684 E.02002
G1 X161.686 Y85.657 E.16419
G1 X161.164 Y85.657 E.02002
G1 X164.712 Y89.206 E.19251
G1 X164.712 Y89.728 E.02002
G1 X160.642 Y85.657 E.22083
G1 X160.12 Y85.657 E.02002
G1 X164.712 Y90.25 E.24915
G1 X164.712 Y90.772 E.02002
G1 X159.598 Y85.657 E.27747
G1 X159.076 Y85.657 E.02002
G1 X164.735 Y91.317 E.30703
G1 X164.735 Y91.838 E.02002
G1 X158.554 Y85.657 E.33534
G1 X158.303 Y85.657 E.00963
G1 X158.303 Y85.928 E.01039
G1 X164.735 Y92.36 E.34895
G1 X164.735 Y92.882 E.02002
G1 X158.303 Y86.45 E.34893
G1 X158.303 Y86.972 E.02002
G1 X164.734 Y93.404 E.34892
G1 X164.734 Y93.925 E.02002
G1 X158.303 Y87.494 E.34891
G1 X158.303 Y88.016 E.02002
G1 X164.734 Y94.447 E.3489
G1 X164.734 Y94.969 E.02002
G1 X158.303 Y88.538 E.34889
G1 X158.303 Y89.06 E.02002
G1 X164.733 Y95.491 E.34887
G1 X164.733 Y96.012 E.02002
G1 X158.303 Y89.582 E.34886
G1 X158.303 Y90.104 E.02002
G1 X164.733 Y96.534 E.34885
G1 X164.733 Y97.056 E.02002
G1 X158.303 Y90.626 E.34884
G1 X158.303 Y91.148 E.02002
G1 X164.733 Y97.578 E.34883
G1 X164.732 Y98.099 E.02002
G1 X158.303 Y91.67 E.34881
G1 X158.303 Y92.192 E.02002
G1 X164.732 Y98.621 E.3488
G1 X164.732 Y99.143 E.02002
G1 X158.303 Y92.714 E.34879
G1 X158.303 Y93.236 E.02002
M73 P1 R61
G1 X164.732 Y99.665 E.34878
G1 X164.731 Y100.186 E.02002
G1 X158.303 Y93.758 E.34877
G1 X158.303 Y94.28 E.02002
G1 X164.731 Y100.708 E.34875
G1 X164.731 Y101.23 E.02002
G1 X158.303 Y94.802 E.34874
G1 X158.303 Y95.324 E.02002
G1 X164.731 Y101.752 E.34873
G1 X164.731 Y102.273 E.02002
G1 X158.303 Y95.846 E.34872
G1 X158.303 Y96.368 E.02002
G1 X164.73 Y102.795 E.34871
G1 X164.73 Y103.317 E.02002
G1 X158.303 Y96.889 E.34869
G1 X158.303 Y97.411 E.02002
G1 X164.73 Y103.838 E.34868
G1 X164.73 Y104.36 E.02002
G1 X158.303 Y97.933 E.34867
G1 X158.303 Y98.455 E.02002
G1 X164.729 Y104.882 E.34866
G1 X164.729 Y105.404 E.02002
G1 X158.303 Y98.977 E.34865
G1 X158.303 Y99.499 E.02002
M73 P2 R61
M73 Q2 S62
G1 X164.729 Y105.925 E.34863
G1 X164.729 Y106.447 E.02002
G1 X158.303 Y100.021 E.34862
G1 X158.303 Y100.543 E.02002
G1 X164.729 Y106.969 E.34861
G1 X164.728 Y107.491 E.02002
G1 X158.303 Y101.065 E.3486
G1 X158.303 Y101.587 E.02002
G1 X164.728 Y108.012 E.34859
G1 X164.728 Y108.534 E.02002
G1 X158.303 Y102.109 E.34857
G1 X158.303 Y102.631 E.02002
G1 X164.728 Y109.056 E.34856
G1 X164.727 Y109.578 E.02002
G1 X158.303 Y103.153 E.34855
G1 X158.303 Y103.675 E.02002
G1 X164.727 Y110.099 E.34854
G1 X164.727 Y110.621 E.02002
G1 X158.303 Y104.197 E.34852
G1 X158.303 Y104.719 E.02002
G1 X164.727 Y111.143 E.34851
G1 X164.727 Y111.665 E.02002
G1 X158.303 Y105.241 E.3485
G1 X158.303 Y105.763 E.02002
G1 X164.726 Y112.186 E.34849
G1 X164.726 Y112.708 E.02002
G1 X158.303 Y106.285 E.34848
G1 X158.303 Y106.807 E.02002
G1 X164.726 Y113.23 E.34846
G1 X164.726 Y113.752 E.02002
G1 X158.303 Y107.329 E.34845
G1 X158.303 Y107.851 E.02002
G1 X164.725 Y114.273 E.34844
G1 X164.725 Y114.795 E.02002
G1 X158.303 Y108.373 E.34843
G1 X158.303 Y108.895 E.02002
G1 X164.725 Y115.317 E.34842
G1 X164.725 Y115.839 E.02002
G1 X158.303 Y109.417 E.3484
G1 X158.303 Y109.939 E.02002
G1 X164.725 Y116.36 E.34839
G1 X164.724 Y116.882 E.02002
G1 X158.303 Y110.461 E.34838
G1 X158.303 Y110.983 E.02002
G1 X164.648 Y117.327 E.34421
G1 X164.551 Y117.374 E.0041
G1 X164.181 Y117.383 E.0142
G1 X158.303 Y111.505 E.31892
G1 X158.303 Y112.026 E.02002
G1 X163.658 Y117.382 E.29055
G1 X163.135 Y117.381 E.02006
G1 X158.303 Y112.548 E.26218
G1 X158.303 Y113.07 E.02002
G1 X162.612 Y117.38 E.23381
G1 X162.09 Y117.379 E.02006
G1 X158.303 Y113.592 E.20544
G1 X158.303 Y114.114 E.02002
G1 X161.567 Y117.378 E.17707
G1 X161.044 Y117.377 E.02006
G1 X158.303 Y114.636 E.1487
G1 X158.303 Y115.158 E.02002
G1 X160.521 Y117.376 E.12033
G1 X159.998 Y117.375 E.02006
G1 X158.303 Y115.68 E.09196
G1 X158.303 Y116.202 E.02002
G1 X159.475 Y117.374 E.06359
G1 X158.952 Y117.373 E.02006
G1 X158.138 Y116.559 E.04416
M204 S1000
; stop printing object LED-Stripe-V15-14-P4.stl id:3 copy 0
; printing object LED-Stripe-V15-14-P1.stl id:0 copy 0
;WIPE_START
G1 F8640
G1 X158.952 Y117.373 E-.2658
G1 X159.475 Y117.374 E-.12075
G1 X158.303 Y116.202 E-.38272
G1 X158.303 Y115.68 E-.12052
G1 X158.487 Y115.865 E-.06021
;WIPE_END
G1 E-.05 F2100
G1 Z.45 F720
G1 X149.01 Y110.354 F10800
G1 Z.25 F720
G1 E1 F2100
M204 S800
;TYPE:Perimeter
;WIDTH:0.419999
G1 F1200
G1 X129.792 Y110.354 E.73177
G1 X129.629 Y110.364 E.00623
G1 X129.318 Y110.445 E.01223
G1 X129.049 Y110.592 E.01168
G1 X128.739 Y110.904 E.01675
G1 X128.557 Y111.293 E.01634
G1 X128.51 Y111.636 E.0132
G1 X128.51 Y129.797 E.69152
G1 X128.439 Y130.106 E.01205
G1 X128.262 Y130.283 E.00956
G1 X127.953 Y130.354 E.01205
G1 X122.085 Y130.354 E.22345
G1 X121.776 Y130.283 E.01205
G1 X121.599 Y130.106 E.00956
G1 X121.528 Y129.797 E.01205
G1 X121.528 Y111.636 E.69152
G1 X121.481 Y111.293 E.0132
G1 X121.367 Y111.013 E.01151
G1 X121.165 Y110.742 E.01287
G1 X120.861 Y110.511 E.01452
G1 X120.568 Y110.395 E.012
G1 X120.246 Y110.354 E.01238
G1 X101.028 Y110.354 E.73177
G1 X101.028 Y72.687 E1.43427
G1 X108.01 Y72.687 E.26585
G1 X108.01 Y99.19 E1.00917
G1 X108.087 Y99.627 E.01689
G1 X108.292 Y99.992 E.01594
G1 X108.567 Y100.247 E.01432
G1 X108.848 Y100.392 E.01202
G1 X109.292 Y100.472 E.0172
G1 X140.746 Y100.472 E1.19768
G1 X141.047 Y100.436 E.01156
G1 X141.471 Y100.247 E.01764
G1 X141.746 Y99.992 E.01432
G1 X141.951 Y99.627 E.01594
G1 X142.028 Y99.19 E.01689
G1 X142.028 Y72.687 E1.00917
G1 X149.01 Y72.687 E.26585
M73 Q2 S61
G1 X149.01 Y110.294 E1.43198
M204 S1000
G1 X149.376 Y110.72 F10800
M204 S800
G1 F1200
G1 X129.792 Y110.72 E.74572
G1 X129.676 Y110.728 E.00445
G1 X129.353 Y110.833 E.01293
G1 X129.136 Y110.997 E.01037
G1 X128.947 Y111.284 E.01306
G1 X128.876 Y111.636 E.01369
G1 X128.876 Y129.772 E.69056
G1 X128.859 Y130.011 E.00914
G1 X128.758 Y130.289 E.01128
G1 X128.567 Y130.516 E.01128
G1 X128.311 Y130.664 E.01128
G1 X127.969 Y130.72 E.01318
G1 X122.11 Y130.72 E.22309
G1 X121.871 Y130.703 E.00914
G1 X121.593 Y130.602 E.01128
G1 X121.366 Y130.411 E.01128
G1 X121.218 Y130.155 E.01128
G1 X121.162 Y129.813 E.01318
G1 X121.162 Y111.636 E.69213
G1 X121.153 Y111.51 E.00481
G1 X121.046 Y111.191 E.01281
G1 X120.858 Y110.955 E.01149
G1 X120.585 Y110.785 E.01226
G1 X120.246 Y110.72 E.01313
G1 X100.662 Y110.72 E.74572
G1 X100.662 Y72.32 E1.46217
G1 X108.376 Y72.32 E.29375
G1 X108.376 Y99.19 E1.02312
G1 X108.39 Y99.348 E.00605
G1 X108.495 Y99.641 E.01186
G1 X108.673 Y99.864 E.01085
G1 X108.975 Y100.049 E.01349
G1 X109.292 Y100.106 E.01228
G1 X140.746 Y100.106 E1.19768
G1 X140.855 Y100.099 E.00415
M73 P3 R61
G1 X141.159 Y100.007 E.01212
