; generated by PrusaSlicer 2.4.0+win64 on 2022-01-19 at 11:47:33 UTC

; 

; external perimeters extrusion width = 0.45mm
; perimeters extrusion width = 0.45mm
; infill extrusion width = 0.45mm
; solid infill extrusion width = 0.45mm
; top infill extrusion width = 0.40mm
; first layer extrusion width = 0.42mm

; external perimeters extrusion width = 0.45mm
; perimeters extrusion width = 0.45mm
; infill extrusion width = 0.45mm
; solid infill extrusion width = 0.45mm
; top infill extrusion width = 0.40mm
; first layer extrusion width = 0.42mm

; external perimeters extrusion width = 0.45mm
; perimeters extrusion width = 0.45mm
; infill extrusion width = 0.45mm
; solid infill extrusion width = 0.45mm
; top infill extrusion width = 0.40mm
; first layer extrusion width = 0.42mm

; external perimeters extrusion width = 0.45mm
; perimeters extrusion width = 0.45mm
; infill extrusion width = 0.45mm
; solid infill extrusion width = 0.45mm
; top infill extrusion width = 0.40mm
; first layer extrusion width = 0.42mm

; external perimeters extrusion width = 0.45mm
; perimeters extrusion width = 0.45mm
; infill extrusion width = 0.45mm
; solid infill extrusion width = 0.45mm
; top infill extrusion width = 0.40mm
; first layer extrusion width = 0.42mm

M73 P0 R55
M73 Q0 S55
M201 X1000 Y1000 Z200 E5000 ; sets maximum accelerations, mm/sec^2
M203 X200 Y200 Z12 E120 ; sets maximum feedrates, mm/sec
M204 P1250 R1250 T1250 ; sets acceleration (P, T) and retract acceleration (R), mm/sec^2
M205 X8.00 Y8.00 Z0.40 E4.50 ; sets the jerk limits, mm/sec
M205 S0 T0 ; sets the minimum extruding and travel feed rate, mm/sec
M107
;TYPE:Custom
M862.3 P "MK3S" ; printer model check
M862.1 P0.4 ; nozzle diameter check
M115 U3.10.0 ; tell printer latest fw version
G90 ; use absolute coordinates
M83 ; extruder relative mode
M104 S240 ; set extruder temp
M140 S85 ; set bed temp
M190 S85 ; wait for bed temp
M109 S240 ; wait for extruder temp
G28 W ; home all without mesh bed level
G80 ; mesh bed leveling
G1 Z0.2 F720
G1 Y-3 F1000 ; go outside print area
G92 E0
G1 X60 E9 F1000 ; intro line
G1 X100 E12.5 F1000 ; intro line
G92 E0
M221 S95

; Don't change E values below. Excessive value can damage the printer.

G21 ; set units to millimeters
G90 ; use absolute coordinates
M83 ; use relative distances for extrusion
M900 K0.08 ; Filament gcode LA 1.5
M900 K45 ; Filament gcode LA 1.0
M107
;LAYER_CHANGE
;Z:0.25
;HEIGHT:0.25
;BEFORE_LAYER_CHANGE
G92 E0.0
;0.25


G1 E-1 F2100
G1 Z.2 F10800
G1 Z.25
;AFTER_LAYER_CHANGE
;0.25
G1 Z.45
G1 X78.681 Y81.937
G1 Z.25
M73 P0 R54
G1 E1 F2100
M204 S1000
;TYPE:Skirt/Brim
;WIDTH:0.42
G1 F1200
G1 X79.739 Y80.959 E.05482
G1 X95.755 Y69.219 E.75614
G1 X97.774 Y68.231 E.08559
G1 X99.519 Y67.987 E.06708
G1 X150.519 Y67.987 E1.94196
G1 X152.731 Y68.384 E.08559
G1 X154.279 Y69.217 E.06692
G1 X170.256 Y80.912 E.75395
G1 X171.807 Y82.54 E.08559
G1 X172.696 Y84.604 E.08559
G1 X172.862 Y86.028 E.05459
G1 X172.885 Y118.343 E1.23047
G1 X172.83 Y119.246 E.03442
G1 X172.638 Y120.338 E.04226
G1 X172.168 Y121.718 E.05549
G1 X171.466 Y122.995 E.05548
G1 X159.883 Y139.311 E.76191
G1 X158.279 Y140.885 E.08559
G1 X156.227 Y141.804 E.08559
G1 X154.695 Y141.991 E.05877
G1 X95.368 Y142.013 E2.25904
G1 X93.155 Y141.616 E.08559
G1 X91.219 Y140.475 E.08559
G1 X90.182 Y139.339 E.05855
G1 X78.584 Y123.047 E.7615
G1 X77.888 Y121.789 E.05472
G1 X77.424 Y120.45 E.054
G1 X77.214 Y119.3 E.0445
G1 X77.158 Y118.398 E.03441
G1 X77.137 Y86.083 E1.23047
G1 X77.537 Y83.871 E.08559
G1 X78.651 Y81.988 E.08331
;WIPE_START
G1 F8640
G1 X79.739 Y80.959 E-.34575
G1 X81.85 Y79.412 E-.60425
;WIPE_END
G1 E-.05 F2100
G1 Z.45 F10800
G1 X145.669 Y126.201
G1 Z.25
G1 E1 F2100
;TYPE:Perimeter
G1 F1200
G1 X154.116 Y126.201 E.32165
G1 X154.116 Y135.049 E.33688
G1 X145.269 Y135.049 E.33689
G1 X145.269 Y126.201 E.33688
G1 X145.609 Y126.201 E.01295
G1 X144.902 Y125.835 F10800
;TYPE:External perimeter
G1 F1200
G1 X154.482 Y125.835 E.36478
G1 X154.482 Y135.415 E.36478
G1 X144.902 Y135.415 E.36478
G1 X144.902 Y125.895 E.3625
G1 X145.289 Y125.939 F10800
;WIPE_START
G1 F8640
G1 X149.017 Y125.869 E-.95
;WIPE_END
G1 E-.05 F2100
G1 Z.45 F10800
G1 X153.255 Y126.311
G1 Z.25
G1 E1 F2100
;TYPE:Solid infill
;WIDTH:0.424952
G1 F1200
G1 X153.841 Y126.898 E.032
G1 X153.841 Y127.423 E.02026
G1 X152.895 Y126.476 E.05166
G1 X152.37 Y126.476 E.02026
G1 X153.841 Y127.948 E.08032
G1 X153.841 Y128.473 E.02026
G1 X151.845 Y126.476 E.10897
G1 X151.32 Y126.476 E.02026
G1 X153.841 Y128.998 E.13763
G1 X153.841 Y129.523 E.02026
G1 X150.794 Y126.476 E.16629
G1 X150.269 Y126.476 E.02026
G1 X153.841 Y130.048 E.19495
G1 X153.841 Y130.573 E.02026
G1 X149.744 Y126.476 E.22361
G1 X149.219 Y126.476 E.02026
G1 X153.841 Y131.098 E.25227
G1 X153.841 Y131.623 E.02026
G1 X148.694 Y126.476 E.28093
G1 X148.169 Y126.476 E.02026
G1 X153.841 Y132.149 E.30959
G1 X153.841 Y132.674 E.02026
G1 X147.644 Y126.476 E.33824
G1 X147.119 Y126.476 E.02026
G1 X153.841 Y133.199 E.3669
G1 X153.841 Y133.724 E.02026
G1 X146.594 Y126.476 E.39556
G1 X146.069 Y126.476 E.02026
G1 X153.841 Y134.249 E.42422
G1 X153.841 Y134.774 E.02026
G1 X145.543 Y126.476 E.45288
G1 X145.543 Y127.001 E.02026
G1 X153.316 Y134.774 E.42421
G1 X152.791 Y134.774 E.02026
M73 P1 R54
M73 Q1 S55
G1 X145.543 Y127.526 E.39556
G1 X145.543 Y128.051 E.02026
G1 X152.266 Y134.774 E.3669
G1 X151.741 Y134.774 E.02026
G1 X145.543 Y128.577 E.33824
G1 X145.543 Y129.102 E.02026
G1 X151.216 Y134.774 E.30958
G1 X150.691 Y134.774 E.02026
M73 Q1 S54
G1 X145.543 Y129.627 E.28092
G1 X145.543 Y130.152 E.02026
G1 X150.165 Y134.774 E.25226
G1 X149.64 Y134.774 E.02026
G1 X145.543 Y130.677 E.2236
G1 X145.543 Y131.202 E.02026
G1 X149.115 Y134.774 E.19494
G1 X148.59 Y134.774 E.02026
G1 X145.543 Y131.727 E.16629
G1 X145.543 Y132.252 E.02026
G1 X148.065 Y134.774 E.13763
G1 X147.54 Y134.774 E.02026
G1 X145.543 Y132.777 E.10897
G1 X145.543 Y133.302 E.02026
G1 X147.015 Y134.774 E.08031
G1 X146.49 Y134.774 E.02026
G1 X145.543 Y133.828 E.05165
G1 X145.543 Y134.353 E.02026
G1 X146.13 Y134.939 E.03199
;WIPE_START
G1 F8640
G1 X145.543 Y134.353 E-.19139
G1 X145.543 Y133.828 E-.12125
G1 X146.49 Y134.774 E-.30903
G1 X147.015 Y134.774 E-.12125
G1 X146.381 Y134.14 E-.20709
;WIPE_END
G1 E-.05 F2100
G1 Z.45 F10800
G1 X157.495 Y86.626
G1 Z.25
G1 E1 F2100
;TYPE:Perimeter
;WIDTH:0.42
G1 F1200
G1 X165.919 Y86.626 E.32078
G1 X165.919 Y93.626 E.26656
G1 X165.942 Y93.626 E.00088
G1 X165.942 Y118.318 E.94021
G1 X165.918 Y118.59 E.0104
G1 X165.854 Y118.829 E.00943
G1 X165.75 Y119.054 E.00944
G1 X165.607 Y119.257 E.00943
G1 X165.432 Y119.432 E.00943
G1 X165.229 Y119.574 E.00944
G1 X165.005 Y119.679 E.00944
G1 X164.765 Y119.743 E.00943
G1 X164.493 Y119.767 E.0104
G1 X158.544 Y119.767 E.22655
G1 X158.272 Y119.743 E.0104
G1 X158.032 Y119.679 E.00943
G1 X157.808 Y119.574 E.00943
G1 X157.605 Y119.432 E.00944
G1 X157.43 Y119.257 E.00943
G1 X157.288 Y119.054 E.00943
G1 X157.183 Y118.829 E.00943
G1 X157.119 Y118.59 E.00944
G1 X157.095 Y118.318 E.0104
G1 X157.095 Y86.626 E1.20677
G1 X157.435 Y86.626 E.01295
G1 X156.729 Y86.259 F10800
;TYPE:External perimeter
G1 F1200
G1 X166.286 Y86.259 E.36391
G1 X166.286 Y93.26 E.26656
G1 X166.309 Y93.26 E.00088
G1 X166.309 Y118.334 E.95477
G1 X166.281 Y118.654 E.01223
G1 X166.2 Y118.955 E.01188
G1 X166.068 Y119.238 E.01188
G1 X165.889 Y119.493 E.01188
G1 X165.669 Y119.714 E.01188
G1 X165.413 Y119.893 E.01188
G1 X165.131 Y120.024 E.01188
G1 X164.829 Y120.105 E.01187
G1 X164.509 Y120.133 E.01223
G1 X158.528 Y120.133 E.22777
G1 X158.208 Y120.105 E.01223
G1 X157.907 Y120.024 E.01188
G1 X157.624 Y119.893 E.01188
G1 X157.369 Y119.714 E.01188
G1 X157.148 Y119.493 E.01188
G1 X156.969 Y119.238 E.01188
G1 X156.837 Y118.955 E.01188
G1 X156.757 Y118.654 E.01188
G1 X156.729 Y118.334 E.01223
G1 X156.729 Y86.319 E1.21904
G1 X157.075 Y86.459 F10800
;WIPE_START
G1 F8640
G1 X160.843 Y86.294 E-.95
;WIPE_END
G1 E-.05 F2100
G1 Z.45 F10800
G1 X165.809 Y87.484
G1 Z.25
G1 E1 F2100
;TYPE:Solid infill
;WIDTH:0.423593
G1 F1200
G1 X165.226 Y86.9 E.03172
G1 X164.703 Y86.9 E.02012
G1 X165.644 Y87.842 E.05121
G1 X165.644 Y88.365 E.02012
G1 X164.18 Y86.9 E.07966
G1 X163.656 Y86.9 E.02012
G1 X165.644 Y88.889 E.1081
G1 X165.644 Y89.412 E.02012
G1 X163.133 Y86.9 E.13655
G1 X162.61 Y86.9 E.02012
G1 X165.644 Y89.935 E.165
G1 X165.644 Y90.458 E.02012
G1 X162.087 Y86.9 E.19345
G1 X161.564 Y86.9 E.02012
G1 X165.644 Y90.981 E.2219
G1 X165.644 Y91.504 E.02012
G1 X161.041 Y86.9 E.25035
G1 X160.517 Y86.9 E.02012
G1 X165.644 Y92.028 E.2788
G1 X165.644 Y92.551 E.02012
G1 X159.994 Y86.9 E.30725
G1 X159.471 Y86.9 E.02012
G1 X165.644 Y93.074 E.3357
G1 X165.644 Y93.597 E.02012
G1 X158.948 Y86.9 E.36415
G1 X158.425 Y86.9 E.02012
G1 X165.668 Y94.143 E.39385
G1 X165.668 Y94.667 E.02012
G1 X157.901 Y86.9 E.4223
G1 X157.378 Y86.9 E.02012
G1 X165.668 Y95.19 E.45075
G1 X165.668 Y95.713 E.02012
G1 X157.37 Y87.415 E.45122
G1 X157.37 Y87.938 E.02012
G1 X165.668 Y96.236 E.45122
G1 X165.668 Y96.759 E.02012
G1 X157.37 Y88.461 E.45122
G1 X157.37 Y88.985 E.02012
G1 X165.668 Y97.282 E.45122
G1 X165.668 Y97.806 E.02012
G1 X157.37 Y89.508 E.45122
G1 X157.37 Y90.031 E.02012
G1 X165.668 Y98.329 E.45122
G1 X165.668 Y98.852 E.02012
G1 X157.37 Y90.554 E.45122
G1 X157.37 Y91.077 E.02012
G1 X165.668 Y99.375 E.45122
G1 X165.668 Y99.898 E.02012
G1 X157.37 Y91.601 E.45122
G1 X157.37 Y92.124 E.02012
G1 X165.668 Y100.422 E.45122
G1 X165.668 Y100.945 E.02012
G1 X157.37 Y92.647 E.45122
G1 X157.37 Y93.17 E.02012
G1 X165.668 Y101.468 E.45122
G1 X165.668 Y101.991 E.02012
G1 X157.37 Y93.693 E.45122
G1 X157.37 Y94.216 E.02012
G1 X165.668 Y102.514 E.45122
G1 X165.668 Y103.037 E.02012
G1 X157.37 Y94.74 E.45122
G1 X157.37 Y95.263 E.02012
G1 X165.668 Y103.561 E.45122
G1 X165.668 Y104.084 E.02012
G1 X157.37 Y95.786 E.45122
G1 X157.37 Y96.309 E.02012
G1 X165.668 Y104.607 E.45122
G1 X165.668 Y105.13 E.02012
G1 X157.37 Y96.832 E.45122
G1 X157.37 Y97.355 E.02012
G1 X165.668 Y105.653 E.45122
G1 X165.668 Y106.176 E.02012
G1 X157.37 Y97.879 E.45122
G1 X157.37 Y98.402 E.02012
G1 X165.668 Y106.7 E.45122
G1 X165.668 Y107.223 E.02012
M73 P2 R54
M73 Q2 S54
G1 X157.37 Y98.925 E.45122
G1 X157.37 Y99.448 E.02012
M73 P2 R53
G1 X165.668 Y107.746 E.45122
G1 X165.668 Y108.269 E.02012
G1 X157.37 Y99.971 E.45122
G1 X157.37 Y100.495 E.02012
G1 X165.668 Y108.792 E.45122
G1 X165.668 Y109.316 E.02012
G1 X157.37 Y101.018 E.45122
G1 X157.37 Y101.541 E.02012
G1 X165.668 Y109.839 E.45122
G1 X165.668 Y110.362 E.02012
G1 X157.37 Y102.064 E.45122
G1 X157.37 Y102.587 E.02012
G1 X165.668 Y110.885 E.45122
G1 X165.668 Y111.408 E.02012
G1 X157.37 Y103.11 E.45122
G1 X157.37 Y103.634 E.02012
G1 X165.668 Y111.931 E.45122
G1 X165.668 Y112.455 E.02012
G1 X157.37 Y104.157 E.45122
G1 X157.37 Y104.68 E.02012
G1 X165.668 Y112.978 E.45122
G1 X165.668 Y113.501 E.02012
G1 X157.37 Y105.203 E.45122
G1 X157.37 Y105.726 E.02012
G1 X165.668 Y114.024 E.45122
G1 X165.668 Y114.547 E.02012
G1 X157.37 Y106.25 E.45122
G1 X157.37 Y106.773 E.02012
G1 X165.668 Y115.071 E.45122
G1 X165.668 Y115.594 E.02012
G1 X157.37 Y107.296 E.45122
G1 X157.37 Y107.819 E.02012
G1 X165.668 Y116.117 E.45122
G1 X165.668 Y116.64 E.02012
G1 X157.37 Y108.342 E.45122
G1 X157.37 Y108.865 E.02012
G1 X165.668 Y117.163 E.45122
G1 X165.668 Y117.686 E.02012
G1 X157.37 Y109.389 E.45122
G1 X157.37 Y109.912 E.02012
G1 X165.668 Y118.21 E.45122
G1 X165.668 Y118.306 E.00371
G1 X165.647 Y118.542 E.00911
G1 X165.611 Y118.676 E.00534
G1 X157.37 Y110.435 E.44814
G1 X157.37 Y110.958 E.02012
G1 X165.435 Y119.024 E.43859
G1 X165.255 Y119.221 E.01027
G1 X165.169 Y119.281 E.00403
G1 X157.37 Y111.481 E.42412
G1 X157.37 Y112.004 E.02012
G1 X164.811 Y119.446 E.40467
G1 X164.718 Y119.471 E.00374
G1 X164.334 Y119.492 E.01477
G1 X157.37 Y112.528 E.37871
G1 X157.37 Y113.051 E.02012
G1 X163.811 Y119.492 E.35026
G1 X163.288 Y119.492 E.02012
G1 X157.37 Y113.574 E.32181
G1 X157.37 Y114.097 E.02012
G1 X162.765 Y119.492 E.29336
G1 X162.241 Y119.492 E.02012
G1 X157.37 Y114.62 E.26491
G1 X157.37 Y115.144 E.02012
G1 X161.718 Y119.492 E.23646
G1 X161.195 Y119.492 E.02012
G1 X157.37 Y115.667 E.20801
G1 X157.37 Y116.19 E.02012
G1 X160.672 Y119.492 E.17957
G1 X160.149 Y119.492 E.02012
G1 X157.37 Y116.713 E.15112
G1 X157.37 Y117.236 E.02012
G1 X159.626 Y119.492 E.12267
G1 X159.102 Y119.492 E.02012
G1 X157.37 Y117.759 E.09422
G1 X157.37 Y118.283 E.02012
G1 X158.579 Y119.492 E.06577
G1 X158.32 Y119.471 E.01001
G1 X158.127 Y119.42 E.00768
G1 X157.946 Y119.335 E.00768
G1 X157.79 Y119.227 E.00729
G1 X157.261 Y118.697 E.02878
;WIPE_START
G1 F8640
G1 X157.79 Y119.227 E-.1728
G1 X157.946 Y119.335 E-.04378
G1 X158.127 Y119.42 E-.04611
G1 X158.32 Y119.471 E-.04611
G1 X158.579 Y119.492 E-.06011
G1 X157.37 Y118.283 E-.39494
G1 X157.37 Y117.759 E-.1208
G1 X157.57 Y117.96 E-.06535
;WIPE_END
G1 E-.05 F2100
G1 Z.45 F10800
G1 X149.542 Y111.462
G1 Z.25
G1 E1 F2100
;TYPE:Perimeter
;WIDTH:0.42
G1 F1200
G1 X129.442 Y111.462 E.76536
G1 X129.442 Y130.014 E.70638
G1 X129.418 Y130.286 E.0104
G1 X129.354 Y130.525 E.00944
G1 X129.25 Y130.75 E.00943
G1 X129.107 Y130.953 E.00943
G1 X128.932 Y131.128 E.00944
G1 X128.729 Y131.27 E.00943
G1 X128.505 Y131.375 E.00944
G1 X128.265 Y131.439 E.00943
G1 X127.993 Y131.462 E.0104
G1 X122.044 Y131.462 E.22655
G1 X121.772 Y131.439 E.0104
G1 X121.532 Y131.375 E.00944
G1 X121.308 Y131.27 E.00943
G1 X121.105 Y131.128 E.00943
G1 X120.93 Y130.953 E.00944
G1 X120.791 Y130.755 E.0092
G1 X120.683 Y130.524 E.00971
G1 X120.619 Y130.286 E.0094
G1 X120.595 Y130.014 E.0104
G1 X120.595 Y111.462 E.70638
G1 X100.095 Y111.462 E.78059
G1 X100.095 Y74.93 E1.39107
G1 X108.942 Y74.93 E.33688
G1 X108.942 Y99.715 E.94376
G1 X141.095 Y99.715 E1.2243
M73 Q2 S53
G1 X141.095 Y74.93 E.94376
G1 X149.942 Y74.93 E.33688
G1 X149.942 Y111.462 E1.39107
G1 X149.602 Y111.462 E.01295
M73 P3 R53
M73 Q3 S53
G1 X150.309 Y111.829 F10800
;TYPE:External perimeter
G1 F1200
G1 X129.809 Y111.829 E.78059
G1 X129.809 Y130.03 E.69304
G1 X129.781 Y130.35 E.01223
G1 X129.7 Y130.651 E.01188
G1 X129.568 Y130.933 E.01187
G1 X129.389 Y131.189 E.01188
G1 X129.169 Y131.409 E.01188
G1 X128.913 Y131.588 E.01188
G1 X128.631 Y131.72 E.01188
G1 X128.329 Y131.801 E.01188
G1 X128.009 Y131.829 E.01223
G1 X122.028 Y131.829 E.22777
G1 X121.708 Y131.801 E.01223
G1 X121.407 Y131.72 E.01188
G1 X121.124 Y131.588 E.01187
G1 X120.869 Y131.409 E.01188
G1 X120.648 Y131.189 E.01188
G1 X120.473 Y130.939 E.01161
G1 X120.337 Y130.65 E.01215
G1 X120.257 Y130.35 E.01186
G1 X120.229 Y130.03 E.01223
G1 X120.229 Y111.829 E.69304
G1 X99.729 Y111.829 E.78059
G1 X99.729 Y74.564 E1.41897
G1 X109.309 Y74.564 E.36478
G1 X109.309 Y99.349 E.94376
G1 X140.729 Y99.349 E1.1964
G1 X140.729 Y74.564 E.94376
G1 X150.309 Y74.564 E.36478
G1 X150.309 Y111.769 E1.41668
G1 X149.947 Y111.659 F10800
;WIPE_START
G1 F8640
G1 X146.194 Y111.781 E-.95
;WIPE_END
G1 E-.05 F2100
G1 Z.45 F10800
G1 X149.832 Y75.781
G1 Z.25
G1 E1 F2100
;TYPE:Solid infill
;WIDTH:0.420039
G1 F1200
G1 X149.257 Y75.205 E.03101
G1 X148.738 Y75.205 E.01973
G1 X149.667 Y76.134 E.05004
G1 X149.667 Y76.652 E.01973
G1 X148.22 Y75.205 E.07794
G1 X147.702 Y75.205 E.01973
G1 X149.667 Y77.17 E.10585
G1 X149.667 Y77.688 E.01973
G1 X147.184 Y75.205 E.13375
G1 X146.666 Y75.205 E.01973
G1 X149.667 Y78.207 E.16166
G1 X149.667 Y78.725 E.01973
G1 X146.148 Y75.205 E.18956
G1 X145.629 Y75.205 E.01973
G1 X149.667 Y79.243 E.21747
G1 X149.667 Y79.761 E.01973
G1 X145.111 Y75.205 E.24538
G1 X144.593 Y75.205 E.01973
G1 X149.667 Y80.279 E.27328
G1 X149.667 Y80.797 E.01973
G1 X144.075 Y75.205 E.30119
G1 X143.557 Y75.205 E.01973
G1 X149.667 Y81.315 E.32909
G1 X149.667 Y81.834 E.01973
G1 X143.039 Y75.205 E.357
G1 X142.521 Y75.205 E.01973
G1 X149.667 Y82.352 E.3849
G1 X149.667 Y82.87 E.01973
G1 X142.002 Y75.205 E.41281
G1 X141.484 Y75.205 E.01973
G1 X149.667 Y83.388 E.44071
G1 X149.667 Y83.906 E.01973
G1 X141.37 Y75.608 E.44688
G1 X141.37 Y76.127 E.01973
G1 X149.667 Y84.424 E.44688
G1 X149.667 Y84.942 E.01973
G1 X141.37 Y76.645 E.44688
G1 X141.37 Y77.163 E.01973
G1 X149.667 Y85.461 E.44688
G1 X149.667 Y85.979 E.01973
G1 X141.37 Y77.681 E.44688
