; generated by PrusaSlicer 2.4.0+win64 on 2022-01-19 at 11:48:31 UTC

; 

; external perimeters extrusion width = 0.45mm
; perimeters extrusion width = 0.45mm
; infill extrusion width = 0.45mm
; solid infill extrusion width = 0.45mm
; top infill extrusion width = 0.40mm
; first layer extrusion width = 0.42mm

; external perimeters extrusion width = 0.45mm
; perimeters extrusion width = 0.45mm
; infill extrusion width = 0.45mm
; solid infill extrusion width = 0.45mm
; top infill extrusion width = 0.40mm
; first layer extrusion width = 0.42mm

; external perimeters extrusion width = 0.45mm
; perimeters extrusion width = 0.45mm
; infill extrusion width = 0.45mm
; solid infill extrusion width = 0.45mm
; top infill extrusion width = 0.40mm
; first layer extrusion width = 0.42mm

; external perimeters extrusion width = 0.45mm
; perimeters extrusion width = 0.45mm
; infill extrusion width = 0.45mm
; solid infill extrusion width = 0.45mm
; top infill extrusion width = 0.40mm
; first layer extrusion width = 0.42mm

; external perimeters extrusion width = 0.45mm
; perimeters extrusion width = 0.45mm
; infill extrusion width = 0.45mm
; solid infill extrusion width = 0.45mm
; top infill extrusion width = 0.40mm
; first layer extrusion width = 0.42mm

M73 P0 R55
M73 Q0 S56
M201 X1000 Y1000 Z200 E5000 ; sets maximum accelerations, mm/sec^2
M203 X200 Y200 Z12 E120 ; sets maximum feedrates, mm/sec
M204 P1250 R1250 T1250 ; sets acceleration (P, T) and retract acceleration (R), mm/sec^2
M205 X8.00 Y8.00 Z0.40 E4.50 ; sets the jerk limits, mm/sec
M205 S0 T0 ; sets the minimum extruding and travel feed rate, mm/sec
M107
;TYPE:Custom
M862.3 P "MK3S" ; printer model check
M862.1 P0.4 ; nozzle diameter check
M115 U3.10.0 ; tell printer latest fw version
G90 ; use absolute coordinates
M83 ; extruder relative mode
M104 S240 ; set extruder temp
M140 S85 ; set bed temp
M190 S85 ; wait for bed temp
M109 S240 ; wait for extruder temp
G28 W ; home all without mesh bed level
G80 ; mesh bed leveling
G1 Z0.2 F720
G1 Y-3 F1000 ; go outside print area
G92 E0
G1 X60 E9 F1000 ; intro line
G1 X100 E12.5 F1000 ; intro line
G92 E0
M221 S95

; Don't change E values below. Excessive value can damage the printer.

G21 ; set units to millimeters
G90 ; use absolute coordinates
M83 ; use relative distances for extrusion
M900 K0.08 ; Filament gcode LA 1.5
M900 K45 ; Filament gcode LA 1.0
M107
;LAYER_CHANGE
;Z:0.25
;HEIGHT:0.25
;BEFORE_LAYER_CHANGE
G92 E0.0
;0.25


G1 E-1 F2100
G1 Z.2 F10800
G1 Z.25
;AFTER_LAYER_CHANGE
;0.25
G1 Z.45
G1 X78.681 Y81.095
G1 Z.25
G1 E1 F2100
M204 S1000
;TYPE:Skirt/Brim
;WIDTH:0.42
G1 F1200
G1 X79.637 Y80.194 E.05
G1 X95.653 Y67.953 E.76758
G1 X97.652 Y66.925 E.08559
G1 X99.519 Y66.645 E.07188
G1 X150.519 Y66.645 E1.94196
G1 X152.731 Y67.042 E.08559
G1 X154.382 Y67.951 E.07174
G1 X170.359 Y80.147 E.76535
G1 X171.877 Y81.805 E.08559
G1 X172.724 Y83.887 E.08559
G1 X172.862 Y85.186 E.04976
G1 X172.885 Y117.501 E1.23047
G1 X172.831 Y118.403 E.03441
G1 X172.638 Y119.496 E.04226
G1 X172.168 Y120.876 E.0555
G1 X171.692 Y121.806 E.03977
G1 X160.479 Y140.27 E.82258
G1 X158.991 Y141.955 E.08559
G1 X157.01 Y143.018 E.08559
G1 X155.04 Y143.332 E.07596
G1 X95.025 Y143.355 E2.28523
G1 X92.813 Y142.958 E.08559
G1 X90.876 Y141.817 E.08559
G1 X89.588 Y140.3 E.07577
G1 X78.356 Y121.857 E.82223
G1 X77.888 Y120.948 E.03895
G1 X77.423 Y119.608 E.054
G1 X77.213 Y118.459 E.04449
G1 X77.157 Y117.557 E.03441
G1 X77.136 Y85.242 E1.23047
G1 X77.537 Y83.03 E.08559
M73 Q0 S55
G1 X78.651 Y81.147 E.08331
;WIPE_START
G1 F8640
G1 X79.637 Y80.194 E-.31654
G1 X81.816 Y78.528 E-.63346
;WIPE_END
G1 E-.05 F2100
G1 Z.45 F10800
G1 X146.014 Y125.542
G1 Z.25
G1 E1 F2100
;TYPE:Perimeter
G1 F1200
G1 X154.461 Y125.542 E.32165
G1 X154.461 Y136.389 E.41304
G1 X145.614 Y136.389 E.33688
G1 X145.614 Y125.542 E.41304
G1 X145.954 Y125.542 E.01295
G1 X145.247 Y125.176 F10800
;TYPE:External perimeter
G1 F1200
G1 X154.827 Y125.176 E.36478
G1 X154.827 Y136.756 E.44094
G1 X145.247 Y136.756 E.36478
G1 X145.247 Y125.236 E.43865
G1 X145.63 Y125.291 F10800
;WIPE_START
G1 F8640
G1 X149.362 Y125.21 E-.95
;WIPE_END
G1 E-.05 F2100
G1 Z.45 F10800
G1 X153.604 Y125.652
G1 Z.25
G1 E1 F2100
;TYPE:Solid infill
;WIDTH:0.423032
G1 F1200
G1 X154.186 Y126.234 E.03161
G1 X154.186 Y126.756 E.02006
G1 X153.247 Y125.817 E.05102
G1 X152.724 Y125.817 E.02006
G1 X154.186 Y127.279 E.07938
G1 X154.186 Y127.801 E.02006
G1 X152.202 Y125.817 E.10775
G1 X151.679 Y125.817 E.02006
G1 X154.186 Y128.324 E.13611
G1 X154.186 Y128.846 E.02006
G1 X151.157 Y125.817 E.16447
G1 X150.635 Y125.817 E.02006
G1 X154.186 Y129.368 E.19284
G1 X154.186 Y129.891 E.02006
G1 X150.112 Y125.817 E.2212
G1 X149.59 Y125.817 E.02006
G1 X154.186 Y130.413 E.24956
G1 X154.186 Y130.935 E.02006
G1 X149.067 Y125.817 E.27793
G1 X148.545 Y125.817 E.02006
G1 X154.186 Y131.458 E.30629
G1 X154.186 Y131.98 E.02006
G1 X148.023 Y125.817 E.33465
G1 X147.5 Y125.817 E.02006
G1 X154.186 Y132.503 E.36302
G1 X154.186 Y133.025 E.02006
G1 X146.978 Y125.817 E.39138
G1 X146.456 Y125.817 E.02006
G1 X154.186 Y133.547 E.41974
G1 X154.186 Y134.07 E.02006
G1 X145.933 Y125.817 E.44811
G1 X145.888 Y125.817 E.00172
G1 X145.888 Y126.294 E.01834
G1 X154.186 Y134.592 E.45053
G1 X154.186 Y135.115 E.02006
M73 P1 R55
M73 Q1 S55
G1 X145.888 Y126.817 E.45053
G1 X145.888 Y127.339 E.02006
G1 X154.186 Y135.637 E.45053
G1 X154.186 Y136.114 E.01834
G1 X154.141 Y136.114 E.00172
G1 X145.888 Y127.861 E.4481
G1 X145.888 Y128.384 E.02006
G1 X153.619 Y136.114 E.41974
G1 X153.097 Y136.114 E.02006
G1 X145.888 Y128.906 E.39137
G1 X145.888 Y129.429 E.02006
G1 X152.574 Y136.114 E.36301
G1 X152.052 Y136.114 E.02006
G1 X145.888 Y129.951 E.33465
G1 X145.888 Y130.473 E.02006
G1 X151.529 Y136.114 E.30628
G1 X151.007 Y136.114 E.02006
G1 X145.888 Y130.996 E.27792
G1 X145.888 Y131.518 E.02006
G1 X150.485 Y136.114 E.24956
G1 X149.962 Y136.114 E.02006
G1 X145.888 Y132.041 E.2212
G1 X145.888 Y132.563 E.02006
G1 X149.44 Y136.114 E.19283
G1 X148.918 Y136.114 E.02006
G1 X145.888 Y133.085 E.16447
G1 X145.888 Y133.608 E.02006
G1 X148.395 Y136.114 E.13611
G1 X147.873 Y136.114 E.02006
G1 X145.888 Y134.13 E.10774
G1 X145.888 Y134.652 E.02006
G1 X147.35 Y136.114 E.07938
G1 X146.828 Y136.114 E.02006
G1 X145.888 Y135.175 E.05102
G1 X145.888 Y135.697 E.02006
G1 X146.47 Y136.279 E.0316
;WIPE_START
G1 F8640
G1 X145.888 Y135.697 E-.19007
G1 X145.888 Y135.175 E-.12062
G1 X146.828 Y136.114 E-.30682
G1 X147.35 Y136.114 E-.12062
G1 X146.702 Y135.466 E-.21187
;WIPE_END
G1 E-.05 F2100
G1 Z.45 F10800
G1 X157.495 Y85.784
G1 Z.25
G1 E1 F2100
;TYPE:Perimeter
;WIDTH:0.42
G1 F1200
G1 X165.919 Y85.784 E.32078
G1 X165.919 Y92.784 E.26656
G1 X165.942 Y92.784 E.00088
G1 X165.942 Y117.476 E.94021
G1 X165.919 Y117.748 E.0104
G1 X165.855 Y117.987 E.00943
G1 X165.75 Y118.212 E.00943
G1 X165.608 Y118.415 E.00944
G1 X165.433 Y118.59 E.00943
G1 X165.23 Y118.732 E.00944
G1 X165.005 Y118.837 E.00944
G1 X164.766 Y118.901 E.00943
G1 X164.494 Y118.925 E.0104
G1 X158.544 Y118.925 E.22655
G1 X158.272 Y118.901 E.0104
G1 X158.033 Y118.837 E.00943
G1 X157.808 Y118.732 E.00943
G1 X157.605 Y118.59 E.00944
G1 X157.43 Y118.415 E.00943
G1 X157.288 Y118.212 E.00943
G1 X157.183 Y117.987 E.00943
G1 X157.119 Y117.748 E.00944
G1 X157.095 Y117.476 E.0104
G1 X157.095 Y85.784 E1.20677
G1 X157.435 Y85.784 E.01295
G1 X156.729 Y85.417 F10800
;TYPE:External perimeter
G1 F1200
G1 X166.286 Y85.417 E.36391
G1 X166.286 Y92.418 E.26656
G1 X166.309 Y92.418 E.00088
G1 X166.309 Y117.492 E.95477
G1 X166.281 Y117.812 E.01223
G1 X166.2 Y118.113 E.01188
G1 X166.068 Y118.396 E.01188
G1 X165.889 Y118.651 E.01188
G1 X165.669 Y118.872 E.01187
G1 X165.413 Y119.051 E.01188
G1 X165.131 Y119.182 E.01188
G1 X164.83 Y119.263 E.01187
G1 X164.51 Y119.291 E.01223
G1 X158.528 Y119.291 E.22777
G1 X158.208 Y119.263 E.01223
G1 X157.907 Y119.182 E.01188
G1 X157.624 Y119.051 E.01188
G1 X157.369 Y118.872 E.01188
G1 X157.148 Y118.651 E.01188
G1 X156.969 Y118.396 E.01188
G1 X156.838 Y118.113 E.01187
G1 X156.757 Y117.812 E.01188
G1 X156.729 Y117.492 E.01223
G1 X156.729 Y85.477 E1.21904
G1 X157.075 Y85.617 F10800
;WIPE_START
G1 F8640
G1 X160.843 Y85.451 E-.95
;WIPE_END
G1 E-.05 F2100
G1 Z.45 F10800
G1 X165.81 Y86.642
G1 Z.25
G1 E1 F2100
;TYPE:Solid infill
;WIDTH:0.423593
G1 F1200
G1 X165.226 Y86.058 E.03172
G1 X164.703 Y86.058 E.02012
G1 X165.645 Y87 E.05121
G1 X165.645 Y87.523 E.02012
G1 X164.18 Y86.058 E.07966
G1 X163.657 Y86.058 E.02012
G1 X165.645 Y88.046 E.1081
G1 X165.645 Y88.57 E.02012
G1 X163.133 Y86.058 E.13655
G1 X162.61 Y86.058 E.02012
G1 X165.645 Y89.093 E.165
G1 X165.645 Y89.616 E.02012
G1 X162.087 Y86.058 E.19345
G1 X161.564 Y86.058 E.02012
M73 P1 R54
G1 X165.645 Y90.139 E.2219
G1 X165.645 Y90.662 E.02012
G1 X161.041 Y86.058 E.25035
G1 X160.518 Y86.058 E.02012
G1 X165.645 Y91.185 E.2788
G1 X165.645 Y91.709 E.02012
G1 X159.994 Y86.058 E.30725
G1 X159.471 Y86.058 E.02012
G1 X165.645 Y92.232 E.3357
G1 X165.645 Y92.755 E.02012
G1 X158.948 Y86.058 E.36415
G1 X158.425 Y86.058 E.02012
G1 X165.668 Y93.301 E.39385
G1 X165.668 Y93.824 E.02012
G1 X157.902 Y86.058 E.4223
G1 X157.379 Y86.058 E.02012
G1 X165.668 Y94.348 E.45075
G1 X165.668 Y94.871 E.02012
G1 X157.37 Y86.573 E.45122
G1 X157.37 Y87.096 E.02012
G1 X165.668 Y95.394 E.45122
G1 X165.668 Y95.917 E.02012
G1 X157.37 Y87.619 E.45122
G1 X157.37 Y88.143 E.02012
G1 X165.668 Y96.44 E.45122
G1 X165.668 Y96.964 E.02012
G1 X157.37 Y88.666 E.45122
G1 X157.37 Y89.189 E.02012
G1 X165.668 Y97.487 E.45122
G1 X165.668 Y98.01 E.02012
G1 X157.37 Y89.712 E.45122
G1 X157.37 Y90.235 E.02012
G1 X165.668 Y98.533 E.45122
G1 X165.668 Y99.056 E.02012
G1 X157.37 Y90.758 E.45122
G1 X157.37 Y91.282 E.02012
G1 X165.668 Y99.579 E.45122
G1 X165.668 Y100.103 E.02012
G1 X157.37 Y91.805 E.45122
G1 X157.37 Y92.328 E.02012
G1 X165.668 Y100.626 E.45122
G1 X165.668 Y101.149 E.02012
G1 X157.37 Y92.851 E.45122
G1 X157.37 Y93.374 E.02012
G1 X165.668 Y101.672 E.45122
G1 X165.668 Y102.195 E.02012
G1 X157.37 Y93.897 E.45122
G1 X157.37 Y94.421 E.02012
G1 X165.668 Y102.718 E.45122
G1 X165.668 Y103.242 E.02012
G1 X157.37 Y94.944 E.45122
G1 X157.37 Y95.467 E.02012
G1 X165.668 Y103.765 E.45122
G1 X165.668 Y104.288 E.02012
G1 X157.37 Y95.99 E.45122
G1 X157.37 Y96.513 E.02012
M73 P2 R54
M73 Q2 S55
G1 X165.668 Y104.811 E.45122
G1 X165.668 Y105.334 E.02012
G1 X157.37 Y97.037 E.45122
G1 X157.37 Y97.56 E.02012
G1 X165.668 Y105.858 E.45122
G1 X165.668 Y106.381 E.02012
G1 X157.37 Y98.083 E.45122
G1 X157.37 Y98.606 E.02012
G1 X165.668 Y106.904 E.45122
G1 X165.668 Y107.427 E.02012
G1 X157.37 Y99.129 E.45122
G1 X157.37 Y99.652 E.02012
G1 X165.668 Y107.95 E.45122
G1 X165.668 Y108.473 E.02012
G1 X157.37 Y100.176 E.45122
G1 X157.37 Y100.699 E.02012
G1 X165.668 Y108.997 E.45122
G1 X165.668 Y109.52 E.02012
G1 X157.37 Y101.222 E.45122
G1 X157.37 Y101.745 E.02012
G1 X165.668 Y110.043 E.45122
G1 X165.668 Y110.566 E.02012
G1 X157.37 Y102.268 E.45122
G1 X157.37 Y102.792 E.02012
G1 X165.668 Y111.089 E.45122
G1 X165.668 Y111.612 E.02012
G1 X157.37 Y103.315 E.45122
G1 X157.37 Y103.838 E.02012
G1 X165.668 Y112.136 E.45122
G1 X165.668 Y112.659 E.02012
G1 X157.37 Y104.361 E.45122
G1 X157.37 Y104.884 E.02012
G1 X165.668 Y113.182 E.45122
G1 X165.668 Y113.705 E.02012
G1 X157.37 Y105.407 E.45122
G1 X157.37 Y105.931 E.02012
G1 X165.668 Y114.228 E.45122
G1 X165.668 Y114.752 E.02012
G1 X157.37 Y106.454 E.45122
G1 X157.37 Y106.977 E.02012
G1 X165.668 Y115.275 E.45122
G1 X165.668 Y115.798 E.02012
G1 X157.37 Y107.5 E.45122
G1 X157.37 Y108.023 E.02012
G1 X165.668 Y116.321 E.45122
G1 X165.668 Y116.844 E.02012
M73 Q2 S54
G1 X157.37 Y108.546 E.45122
G1 X157.37 Y109.07 E.02012
G1 X165.668 Y117.367 E.45122
G1 X165.668 Y117.464 E.00371
G1 X165.647 Y117.7 E.00911
G1 X165.611 Y117.834 E.00534
G1 X157.37 Y109.593 E.44814
G1 X157.37 Y110.116 E.02012
G1 X165.436 Y118.182 E.43859
G1 X165.255 Y118.379 E.01027
G1 X165.169 Y118.439 E.00403
G1 X157.37 Y110.639 E.42412
G1 X157.37 Y111.162 E.02012
G1 X164.812 Y118.604 E.40467
G1 X164.718 Y118.629 E.00374
G1 X164.334 Y118.65 E.01476
G1 X157.37 Y111.686 E.37871
G1 X157.37 Y112.209 E.02012
G1 X163.811 Y118.65 E.35026
G1 X163.288 Y118.65 E.02012
G1 X157.37 Y112.732 E.32181
G1 X157.37 Y113.255 E.02012
G1 X162.765 Y118.65 E.29336
G1 X162.242 Y118.65 E.02012
G1 X157.37 Y113.778 E.26491
G1 X157.37 Y114.301 E.02012
G1 X161.718 Y118.65 E.23647
G1 X161.195 Y118.65 E.02012
G1 X157.37 Y114.825 E.20802
G1 X157.37 Y115.348 E.02012
G1 X160.672 Y118.65 E.17957
G1 X160.149 Y118.65 E.02012
G1 X157.37 Y115.871 E.15112
G1 X157.37 Y116.394 E.02012
G1 X159.626 Y118.65 E.12267
G1 X159.103 Y118.65 E.02012
G1 X157.37 Y116.917 E.09422
G1 X157.37 Y117.441 E.02012
G1 X158.579 Y118.65 E.06577
G1 X158.32 Y118.629 E.01001
G1 X158.127 Y118.578 E.00768
G1 X157.946 Y118.493 E.00768
G1 X157.791 Y118.385 E.00729
G1 X157.262 Y117.855 E.02878
;WIPE_START
G1 F8640
G1 X157.791 Y118.385 E-.17283
G1 X157.946 Y118.493 E-.04375
G1 X158.127 Y118.578 E-.04611
G1 X158.32 Y118.629 E-.0461
G1 X158.579 Y118.65 E-.06011
G1 X157.37 Y117.441 E-.39495
G1 X157.37 Y116.917 E-.1208
G1 X157.57 Y117.117 E-.06533
;WIPE_END
G1 E-.05 F2100
G1 Z.45 F10800
G1 X149.542 Y111.12
G1 Z.25
G1 E1 F2100
;TYPE:Perimeter
;WIDTH:0.42
G1 F1200
G1 X129.442 Y111.12 E.76536
G1 X129.442 Y129.672 E.70638
G1 X129.419 Y129.944 E.0104
G1 X129.355 Y130.183 E.00943
G1 X129.25 Y130.407 E.00943
G1 X129.108 Y130.61 E.00944
G1 X128.933 Y130.786 E.00943
G1 X128.73 Y130.928 E.00943
G1 X128.505 Y131.032 E.00943
G1 X128.272 Y131.095 E.0092
G1 X127.993 Y131.12 E.01067
G1 X122.044 Y131.12 E.22651
G1 X121.773 Y131.097 E.01036
G1 X121.527 Y131.03 E.00971
G1 X121.308 Y130.928 E.0092
G1 X121.105 Y130.786 E.00943
G1 X120.93 Y130.61 E.00944
G1 X120.791 Y130.413 E.0092
G1 X120.683 Y130.182 E.00971
G1 X120.619 Y129.944 E.0094
G1 X120.595 Y129.672 E.0104
G1 X120.595 Y111.12 E.70638
G1 X100.095 Y111.12 E.78059
G1 X100.095 Y73.588 E1.42915
G1 X108.942 Y73.588 E.33688
G1 X108.942 Y99.373 E.98184
G1 X141.095 Y99.373 E1.2243
G1 X141.095 Y73.588 E.98184
G1 X149.942 Y73.588 E.33688
M73 P3 R54
M73 Q3 S54
G1 X149.942 Y111.12 E1.42915
G1 X149.602 Y111.12 E.01295
G1 X150.309 Y111.487 F10800
;TYPE:External perimeter
G1 F1200
G1 X129.809 Y111.487 E.78059
G1 X129.809 Y129.688 E.69304
G1 X129.781 Y130.007 E.01223
G1 X129.7 Y130.309 E.01188
G1 X129.568 Y130.591 E.01188
G1 X129.389 Y130.847 E.01188
G1 X129.169 Y131.067 E.01188
G1 X128.913 Y131.246 E.01188
G1 X128.631 Y131.378 E.01188
G1 X128.336 Y131.457 E.01161
G1 X128.009 Y131.487 E.0125
G1 X122.028 Y131.487 E.22775
G1 X121.709 Y131.459 E.01221
G1 X121.401 Y131.375 E.01215
G1 X121.124 Y131.246 E.01161
G1 X120.869 Y131.067 E.01188
G1 X120.648 Y130.847 E.01188
G1 X120.473 Y130.597 E.01161
G1 X120.337 Y130.308 E.01215
G1 X120.257 Y130.007 E.01186
G1 X120.229 Y129.688 E.01223
G1 X120.229 Y111.487 E.69304
G1 X99.729 Y111.487 E.78059
G1 X99.729 Y73.222 E1.45705
G1 X109.309 Y73.222 E.36478
G1 X109.309 Y99.007 E.98184
G1 X140.729 Y99.007 E1.1964
M73 P3 R53
G1 X140.729 Y73.222 E.98184
G1 X150.309 Y73.222 E.36478
G1 X150.309 Y111.427 E1.45476
G1 X149.947 Y111.316 F10800
;WIPE_START
G1 F8640
G1 X146.195 Y111.439 E-.95
;WIPE_END
G1 E-.05 F2100
G1 Z.45 F10800
G1 X149.088 Y73.698
G1 Z.25
G1 E1 F2100
;TYPE:Solid infill
;WIDTH:0.422079
G1 F1200
G1 X149.668 Y74.278 E.03142
G1 X149.668 Y74.799 E.01995
G1 X148.731 Y73.863 E.05071
G1 X148.21 Y73.863 E.01995
G1 X149.668 Y75.32 E.07892
G1 X149.668 Y75.841 E.01995
G1 X147.689 Y73.863 E.10714
G1 X147.168 Y73.863 E.01995
G1 X149.668 Y76.362 E.13536
G1 X149.668 Y76.883 E.01995
G1 X146.647 Y73.863 E.16357
G1 X146.126 Y73.863 E.01995
G1 X149.668 Y77.404 E.19179
G1 X149.668 Y77.925 E.01995
G1 X145.605 Y73.863 E.22001
G1 X145.084 Y73.863 E.01995
G1 X149.668 Y78.446 E.24823
G1 X149.668 Y78.967 E.01995
G1 X144.563 Y73.863 E.27644
G1 X144.042 Y73.863 E.01995
G1 X149.668 Y79.488 E.30466
G1 X149.668 Y80.009 E.01995
G1 X143.521 Y73.863 E.33288
G1 X143 Y73.863 E.01995
G1 X149.668 Y80.53 E.36109
G1 X149.668 Y81.051 E.01995
G1 X142.479 Y73.863 E.38931
G1 X141.958 Y73.863 E.01995
G1 X149.668 Y81.573 E.41753
G1 X149.668 Y82.094 E.01995
