; generated by PrusaSlicer 2.4.0+win64 on 2022-01-19 at 11:45:40 UTC

; 

; external perimeters extrusion width = 0.45mm
; perimeters extrusion width = 0.45mm
; infill extrusion width = 0.45mm
; solid infill extrusion width = 0.45mm
; top infill extrusion width = 0.40mm
; first layer extrusion width = 0.42mm

; external perimeters extrusion width = 0.45mm
; perimeters extrusion width = 0.45mm
; infill extrusion width = 0.45mm
; solid infill extrusion width = 0.45mm
; top infill extrusion width = 0.40mm
; first layer extrusion width = 0.42mm

; external perimeters extrusion width = 0.45mm
; perimeters extrusion width = 0.45mm
; infill extrusion width = 0.45mm
; solid infill extrusion width = 0.45mm
; top infill extrusion width = 0.40mm
; first layer extrusion width = 0.42mm

; external perimeters extrusion width = 0.45mm
; perimeters extrusion width = 0.45mm
; infill extrusion width = 0.45mm
; solid infill extrusion width = 0.45mm
; top infill extrusion width = 0.40mm
; first layer extrusion width = 0.42mm

; external perimeters extrusion width = 0.45mm
; perimeters extrusion width = 0.45mm
; infill extrusion width = 0.45mm
; solid infill extrusion width = 0.45mm
; top infill extrusion width = 0.40mm
; first layer extrusion width = 0.42mm

M73 P0 R54
M73 Q0 S55
M201 X1000 Y1000 Z200 E5000 ; sets maximum accelerations, mm/sec^2
M203 X200 Y200 Z12 E120 ; sets maximum feedrates, mm/sec
M204 P1250 R1250 T1250 ; sets acceleration (P, T) and retract acceleration (R), mm/sec^2
M205 X8.00 Y8.00 Z0.40 E4.50 ; sets the jerk limits, mm/sec
M205 S0 T0 ; sets the minimum extruding and travel feed rate, mm/sec
M107
;TYPE:Custom
M862.3 P "MK3S" ; printer model check
M862.1 P0.4 ; nozzle diameter check
M115 U3.10.0 ; tell printer latest fw version
G90 ; use absolute coordinates
M83 ; extruder relative mode
M104 S240 ; set extruder temp
M140 S85 ; set bed temp
M190 S85 ; wait for bed temp
M109 S240 ; wait for extruder temp
G28 W ; home all without mesh bed level
G80 ; mesh bed leveling
G1 Z0.2 F720
G1 Y-3 F1000 ; go outside print area
G92 E0
G1 X60 E9 F1000 ; intro line
G1 X100 E12.5 F1000 ; intro line
G92 E0
M221 S95

; Don't change E values below. Excessive value can damage the printer.

G21 ; set units to millimeters
G90 ; use absolute coordinates
M83 ; use relative distances for extrusion
M900 K0.08 ; Filament gcode LA 1.5
M900 K45 ; Filament gcode LA 1.0
M107
;LAYER_CHANGE
;Z:0.25
;HEIGHT:0.25
;BEFORE_LAYER_CHANGE
G92 E0.0
;0.25


G1 E-1 F2100
G1 Z.2 F10800
G1 Z.25
;AFTER_LAYER_CHANGE
;0.25
G1 Z.45
G1 X78.682 Y82.746
G1 Z.25
G1 E1 F2100
M204 S1000
;TYPE:Skirt/Brim
;WIDTH:0.42
G1 F1200
G1 X79.846 Y81.693 E.05979
G1 X95.861 Y70.453 E.74502
G1 X97.9 Y69.507 E.08559
G1 X99.518 Y69.298 E.06213
G1 X150.518 Y69.298 E1.94196
G1 X152.731 Y69.695 E.08559
G1 X154.172 Y70.45 E.06195
G1 X170.149 Y81.646 E.74286
G1 X171.733 Y83.241 E.08559
G1 X172.664 Y85.287 E.08559
G1 X172.862 Y86.839 E.05957
G1 X172.885 Y119.154 E1.23047
G1 X172.83 Y120.056 E.03442
G1 X172.637 Y121.148 E.04223
G1 X172.02 Y122.844 E.06872
G1 X171.466 Y123.805 E.04224
G1 X170.916 Y124.542 E.035
G1 X159.113 Y138.453 E.69468
G1 X157.379 Y139.884 E.08559
G1 X154.259 Y140.701 E.12282
G1 X95.779 Y140.702 E2.22676
G1 X93.567 Y140.305 E.08559
G1 X90.93 Y138.461 E.12252
G1 X78.785 Y124.142 E.71495
G1 X77.889 Y122.599 E.06795
G1 X77.524 Y121.617 E.03992
G1 X77.292 Y120.679 E.03676
G1 X77.158 Y119.208 E.05626
G1 X77.137 Y86.893 E1.23047
G1 X77.537 Y84.681 E.08559
M73 Q0 S54
G1 X78.651 Y82.798 E.08331
;WIPE_START
G1 F8640
G1 X79.846 Y81.693 E-.37581
G1 X81.881 Y80.264 E-.57419
;WIPE_END
G1 E-.05 F2100
G1 Z.45 F10800
G1 X157.495 Y87.436
G1 Z.25
G1 E1 F2100
;TYPE:Perimeter
G1 F1200
G1 X165.919 Y87.436 E.32078
G1 X165.919 Y94.437 E.26656
G1 X165.942 Y94.437 E.00088
G1 X165.942 Y119.128 E.94021
G1 X165.918 Y119.4 E.0104
G1 X165.854 Y119.64 E.00943
G1 X165.749 Y119.864 E.00943
G1 X165.607 Y120.067 E.00943
G1 X165.432 Y120.242 E.00943
G1 X165.229 Y120.385 E.00944
G1 X165.005 Y120.489 E.00943
G1 X164.765 Y120.553 E.00943
G1 X164.493 Y120.577 E.0104
G1 X158.544 Y120.577 E.22655
G1 X158.272 Y120.553 E.0104
G1 X158.032 Y120.489 E.00943
G1 X157.808 Y120.385 E.00943
G1 X157.605 Y120.243 E.00943
G1 X157.429 Y120.067 E.00943
G1 X157.287 Y119.864 E.00944
G1 X157.183 Y119.64 E.00943
G1 X157.118 Y119.4 E.00943
G1 X157.095 Y119.128 E.0104
G1 X157.095 Y87.436 E1.20677
G1 X157.435 Y87.436 E.01295
G1 X156.728 Y87.07 F10800
;TYPE:External perimeter
G1 F1200
G1 X166.285 Y87.07 E.36391
G1 X166.285 Y94.07 E.26656
G1 X166.308 Y94.07 E.00088
G1 X166.308 Y119.144 E.95477
G1 X166.28 Y119.464 E.01223
G1 X166.2 Y119.766 E.01188
G1 X166.068 Y120.048 E.01188
G1 X165.889 Y120.304 E.01188
G1 X165.668 Y120.524 E.01188
G1 X165.413 Y120.703 E.01188
G1 X165.13 Y120.835 E.01188
G1 X164.829 Y120.916 E.01187
G1 X164.509 Y120.944 E.01223
G1 X158.528 Y120.944 E.22777
G1 X158.208 Y120.916 E.01223
G1 X157.906 Y120.835 E.01188
G1 X157.624 Y120.703 E.01188
G1 X157.368 Y120.524 E.01188
G1 X157.148 Y120.304 E.01187
G1 X156.969 Y120.048 E.01188
G1 X156.837 Y119.766 E.01188
G1 X156.756 Y119.464 E.01188
G1 X156.728 Y119.144 E.01223
G1 X156.728 Y87.13 E1.21904
G1 X157.075 Y87.27 F10800
;WIPE_START
G1 F8640
G1 X160.843 Y87.104 E-.95
;WIPE_END
G1 E-.05 F2100
G1 Z.45 F10800
G1 X165.809 Y88.294
G1 Z.25
G1 E1 F2100
;TYPE:Solid infill
;WIDTH:0.423593
G1 F1200
G1 X165.226 Y87.711 E.03172
G1 X164.703 Y87.711 E.02012
G1 X165.644 Y88.653 E.05121
G1 X165.644 Y89.176 E.02012
G1 X164.179 Y87.711 E.07966
G1 X163.656 Y87.711 E.02012
G1 X165.644 Y89.699 E.1081
G1 X165.644 Y90.222 E.02012
G1 X163.133 Y87.711 E.13655
G1 X162.61 Y87.711 E.02012
G1 X165.644 Y90.745 E.165
G1 X165.644 Y91.268 E.02012
G1 X162.087 Y87.711 E.19345
G1 X161.563 Y87.711 E.02012
M73 Q1 S54
G1 X165.644 Y91.792 E.2219
G1 X165.644 Y92.315 E.02012
M73 P1 R54
G1 X161.04 Y87.711 E.25035
G1 X160.517 Y87.711 E.02012
G1 X165.644 Y92.838 E.2788
G1 X165.644 Y93.361 E.02012
G1 X159.994 Y87.711 E.30725
G1 X159.471 Y87.711 E.02012
G1 X165.644 Y93.884 E.3357
G1 X165.644 Y94.408 E.02012
G1 X158.948 Y87.711 E.36415
G1 X158.424 Y87.711 E.02012
G1 X165.667 Y94.954 E.39385
G1 X165.667 Y95.477 E.02012
G1 X157.901 Y87.711 E.4223
G1 X157.378 Y87.711 E.02012
G1 X165.667 Y96 E.45075
G1 X165.667 Y96.523 E.02012
G1 X157.369 Y88.226 E.45122
G1 X157.369 Y88.749 E.02012
G1 X165.667 Y97.047 E.45122
G1 X165.667 Y97.57 E.02012
G1 X157.369 Y89.272 E.45122
G1 X157.369 Y89.795 E.02012
G1 X165.667 Y98.093 E.45122
G1 X165.667 Y98.616 E.02012
G1 X157.369 Y90.318 E.45122
G1 X157.369 Y90.841 E.02012
G1 X165.667 Y99.139 E.45122
G1 X165.667 Y99.662 E.02012
G1 X157.369 Y91.365 E.45122
G1 X157.369 Y91.888 E.02012
G1 X165.667 Y100.186 E.45122
G1 X165.667 Y100.709 E.02012
G1 X157.369 Y92.411 E.45122
G1 X157.369 Y92.934 E.02012
G1 X165.667 Y101.232 E.45122
G1 X165.667 Y101.755 E.02012
G1 X157.369 Y93.457 E.45122
G1 X157.369 Y93.98 E.02012
G1 X165.667 Y102.278 E.45122
G1 X165.667 Y102.801 E.02012
M73 P1 R53
G1 X157.369 Y94.504 E.45122
G1 X157.369 Y95.027 E.02012
G1 X165.667 Y103.325 E.45122
G1 X165.667 Y103.848 E.02012
G1 X157.369 Y95.55 E.45122
G1 X157.369 Y96.073 E.02012
G1 X165.667 Y104.371 E.45122
G1 X165.667 Y104.894 E.02012
G1 X157.369 Y96.596 E.45122
G1 X157.369 Y97.12 E.02012
G1 X165.667 Y105.417 E.45122
G1 X165.667 Y105.941 E.02012
G1 X157.369 Y97.643 E.45122
G1 X157.369 Y98.166 E.02012
G1 X165.667 Y106.464 E.45122
G1 X165.667 Y106.987 E.02012
G1 X157.369 Y98.689 E.45122
G1 X157.369 Y99.212 E.02012
G1 X165.667 Y107.51 E.45122
G1 X165.667 Y108.033 E.02012
G1 X157.369 Y99.735 E.45122
G1 X157.369 Y100.259 E.02012
G1 X165.667 Y108.556 E.45122
G1 X165.667 Y109.08 E.02012
G1 X157.369 Y100.782 E.45122
G1 X157.369 Y101.305 E.02012
G1 X165.667 Y109.603 E.45122
G1 X165.667 Y110.126 E.02012
G1 X157.369 Y101.828 E.45122
G1 X157.369 Y102.351 E.02012
G1 X165.667 Y110.649 E.45122
G1 X165.667 Y111.172 E.02012
G1 X157.369 Y102.875 E.45122
G1 X157.369 Y103.398 E.02012
G1 X165.667 Y111.696 E.45122
G1 X165.667 Y112.219 E.02012
G1 X157.369 Y103.921 E.45122
G1 X157.369 Y104.444 E.02012
G1 X165.667 Y112.742 E.45122
G1 X165.667 Y113.265 E.02012
G1 X157.369 Y104.967 E.45122
G1 X157.369 Y105.49 E.02012
G1 X165.667 Y113.788 E.45122
G1 X165.667 Y114.311 E.02012
G1 X157.369 Y106.014 E.45122
G1 X157.369 Y106.537 E.02012
G1 X165.667 Y114.835 E.45122
G1 X165.667 Y115.358 E.02012
G1 X157.369 Y107.06 E.45122
G1 X157.369 Y107.583 E.02012
G1 X165.667 Y115.881 E.45122
G1 X165.667 Y116.404 E.02012
G1 X157.369 Y108.106 E.45122
G1 X157.369 Y108.629 E.02012
G1 X165.667 Y116.927 E.45122
G1 X165.667 Y117.45 E.02012
G1 X157.369 Y109.153 E.45122
G1 X157.369 Y109.676 E.02012
G1 X165.667 Y117.974 E.45122
G1 X165.667 Y118.497 E.02012
G1 X157.369 Y110.199 E.45122
G1 X157.369 Y110.722 E.02012
G1 X165.667 Y119.02 E.45122
G1 X165.667 Y119.116 E.00371
G1 X165.647 Y119.353 E.00911
G1 X165.611 Y119.487 E.00534
G1 X157.369 Y111.245 E.44814
G1 X157.369 Y111.769 E.02012
G1 X165.435 Y119.834 E.43859
G1 X165.255 Y120.031 E.01027
M73 P2 R53
G1 X165.169 Y120.091 E.00403
G1 X157.369 Y112.292 E.42412
G1 X157.369 Y112.815 E.02012
M73 Q2 S54
G1 X164.811 Y120.257 E.40467
G1 X164.717 Y120.282 E.00374
G1 X164.334 Y120.303 E.01477
G1 X157.369 Y113.338 E.37871
G1 X157.369 Y113.861 E.02012
G1 X163.811 Y120.303 E.35026
G1 X163.288 Y120.303 E.02012
G1 X157.369 Y114.384 E.32181
G1 X157.369 Y114.908 E.02012
G1 X162.764 Y120.303 E.29336
G1 X162.241 Y120.303 E.02012
G1 X157.369 Y115.431 E.26491
G1 X157.369 Y115.954 E.02012
G1 X161.718 Y120.303 E.23646
G1 X161.195 Y120.303 E.02012
G1 X157.369 Y116.477 E.20801
G1 X157.369 Y117 E.02012
G1 X160.672 Y120.303 E.17957
G1 X160.148 Y120.303 E.02012
G1 X157.369 Y117.524 E.15112
G1 X157.369 Y118.047 E.02012
G1 X159.625 Y120.303 E.12267
G1 X159.102 Y120.303 E.02012
G1 X157.369 Y118.57 E.09422
G1 X157.369 Y119.093 E.02012
G1 X158.579 Y120.303 E.06577
G1 X158.319 Y120.282 E.01001
G1 X158.127 Y120.23 E.00768
G1 X157.946 Y120.146 E.00768
G1 X157.79 Y120.037 E.00729
G1 X157.261 Y119.508 E.02878
;WIPE_START
G1 F8640
G1 X157.79 Y120.037 E-.17284
G1 X157.946 Y120.146 E-.04376
G1 X158.127 Y120.23 E-.04611
G1 X158.319 Y120.282 E-.0461
G1 X158.579 Y120.303 E-.06011
G1 X157.369 Y119.093 E-.39494
G1 X157.369 Y118.57 E-.1208
G1 X157.57 Y118.77 E-.06533
;WIPE_END
G1 E-.05 F2100
G1 Z.45 F10800
G1 X153.682 Y127.311
G1 Z.25
G1 E1 F2100
;TYPE:Perimeter
;WIDTH:0.42
G1 F1200
G1 X153.682 Y133.758 E.2455
G1 X144.835 Y133.758 E.33688
G1 X144.835 Y126.911 E.26073
G1 X153.682 Y126.911 E.33688
G1 X153.682 Y127.251 E.01295
G1 X154.049 Y126.544 F10800
;TYPE:External perimeter
G1 F1200
G1 X154.049 Y134.124 E.28863
G1 X144.469 Y134.124 E.36478
G1 X144.469 Y126.544 E.28863
G1 X153.989 Y126.544 E.3625
G1 X153.93 Y126.927 F10800
;WIPE_START
G1 F8640
G1 X154.021 Y130.659 E-.95
;WIPE_END
G1 E-.05 F2100
G1 Z.45 F10800
G1 X152.816 Y127.021
G1 Z.25
G1 E1 F2100
;TYPE:Solid infill
;WIDTH:0.4274
G1 F1200
G1 X153.408 Y127.612 E.03249
G1 X153.408 Y128.141 E.02053
G1 X152.453 Y127.186 E.05247
G1 X151.924 Y127.186 E.02053
G1 X153.408 Y128.669 E.08151
G1 X153.408 Y129.198 E.02053
G1 X151.395 Y127.186 E.11055
G1 X150.867 Y127.186 E.02053
G1 X153.408 Y129.726 E.13959
G1 X153.408 Y130.255 E.02053
G1 X150.338 Y127.186 E.16862
G1 X149.81 Y127.186 E.02053
G1 X153.408 Y130.783 E.19766
G1 X153.408 Y131.312 E.02053
G1 X149.281 Y127.186 E.2267
G1 X148.753 Y127.186 E.02053
G1 X153.408 Y131.841 E.25574
G1 X153.408 Y132.369 E.02053
G1 X148.224 Y127.186 E.28478
G1 X147.696 Y127.186 E.02053
G1 X153.408 Y132.898 E.31381
G1 X153.408 Y133.426 E.02053
G1 X147.167 Y127.186 E.34285
G1 X146.638 Y127.186 E.02053
G1 X152.936 Y133.483 E.34599
G1 X152.408 Y133.483 E.02053
G1 X146.11 Y127.186 E.34599
G1 X145.581 Y127.186 E.02053
G1 X151.879 Y133.483 E.34599
G1 X151.351 Y133.483 E.02053
G1 X145.11 Y127.243 E.34284
G1 X145.11 Y127.771 E.02053
G1 X150.822 Y133.483 E.31381
G1 X150.293 Y133.483 E.02053
M73 Q2 S53
G1 X145.11 Y128.3 E.28477
G1 X145.11 Y128.828 E.02053
G1 X149.765 Y133.483 E.25573
G1 X149.236 Y133.483 E.02053
G1 X145.11 Y129.357 E.22669
G1 X145.11 Y129.886 E.02053
G1 X148.708 Y133.483 E.19765
G1 X148.179 Y133.483 E.02053
G1 X145.11 Y130.414 E.16862
G1 X145.11 Y130.943 E.02053
G1 X147.651 Y133.483 E.13958
G1 X147.122 Y133.483 E.02053
G1 X145.11 Y131.471 E.11054
G1 X145.11 Y132 E.02053
G1 X146.593 Y133.483 E.0815
G1 X146.065 Y133.483 E.02053
G1 X145.11 Y132.528 E.05247
G1 X145.11 Y133.057 E.02053
G1 X145.701 Y133.648 E.03248
;WIPE_START
G1 F8640
G1 X145.11 Y133.057 E-.19308
G1 X145.11 Y132.528 E-.12205
G1 X146.065 Y133.483 E-.31185
G1 X146.593 Y133.483 E-.12205
G1 X145.978 Y132.868 E-.20098
;WIPE_END
G1 E-.05 F2100
G1 Z.45 F10800
G1 X109.708 Y100.026
G1 Z.25
G1 E1 F2100
;TYPE:Perimeter
;WIDTH:0.42
G1 F1200
G1 X141.095 Y100.026 E1.19512
G1 X141.095 Y76.24 E.90568
G1 X149.942 Y76.24 E.33688
G1 X149.942 Y111.773 E1.35299
G1 X129.442 Y111.773 E.78059
G1 X129.442 Y130.324 E.70638
G1 X129.418 Y130.596 E.0104
G1 X129.354 Y130.835 E.00943
G1 X129.249 Y131.06 E.00944
G1 X129.107 Y131.263 E.00943
G1 X128.932 Y131.438 E.00943
G1 X128.729 Y131.58 E.00944
G1 X128.505 Y131.685 E.00943
G1 X128.265 Y131.749 E.00943
G1 X127.993 Y131.773 E.0104
G1 X122.044 Y131.773 E.22655
G1 X121.772 Y131.749 E.0104
G1 X121.532 Y131.685 E.00943
G1 X121.308 Y131.58 E.00943
G1 X121.105 Y131.438 E.00944
G1 X120.929 Y131.263 E.00943
G1 X120.787 Y131.06 E.00943
G1 X120.683 Y130.835 E.00944
G1 X120.619 Y130.596 E.00944
G1 X120.595 Y130.324 E.0104
G1 X120.595 Y111.773 E.70638
G1 X100.095 Y111.773 E.78059
G1 X100.095 Y76.24 E1.35299
G1 X108.942 Y76.24 E.33688
G1 X108.942 Y100.026 E.90568
G1 X109.648 Y100.026 E.0269
G1 X109.308 Y99.659 F10800
;TYPE:External perimeter
G1 F1200
G1 X140.728 Y99.659 E1.1964
G1 X140.728 Y75.874 E.90568
G1 X150.308 Y75.874 E.36478
M73 P3 R53
M73 Q3 S53
G1 X150.308 Y112.139 E1.38089
G1 X129.808 Y112.139 E.78059
G1 X129.808 Y130.34 E.69304
G1 X129.78 Y130.66 E.01223
G1 X129.7 Y130.961 E.01188
G1 X129.568 Y131.244 E.01188
G1 X129.389 Y131.499 E.01188
G1 X129.168 Y131.72 E.01188
G1 X128.913 Y131.899 E.01188
G1 X128.63 Y132.031 E.01188
M73 P3 R52
G1 X128.329 Y132.111 E.01187
G1 X128.009 Y132.139 E.01223
G1 X122.028 Y132.139 E.22777
G1 X121.708 Y132.111 E.01223
G1 X121.406 Y132.031 E.01188
G1 X121.124 Y131.899 E.01187
G1 X120.868 Y131.72 E.01188
G1 X120.648 Y131.499 E.01188
G1 X120.469 Y131.244 E.01188
G1 X120.337 Y130.961 E.01188
G1 X120.256 Y130.66 E.01188
G1 X120.228 Y130.34 E.01223
G1 X120.228 Y112.139 E.69304
G1 X99.728 Y112.139 E.78059
G1 X99.728 Y75.874 E1.38089
G1 X109.308 Y75.874 E.36478
G1 X109.308 Y99.599 E.9034
G1 X109.359 Y100.056 F10800
;WIPE_START
G1 F8640
G1 X113.423 Y99.607 E-.95
;WIPE_END
G1 E-.05 F2100
G1 Z.45 F10800
G1 X149.832 Y77.091
G1 Z.25
G1 E1 F2100
;TYPE:Solid infill
;WIDTH:0.420196
G1 F1200
G1 X149.256 Y76.515 E.03104
G1 X148.738 Y76.515 E.01975
G1 X149.667 Y77.445 E.05009
G1 X149.667 Y77.963 E.01975
G1 X148.219 Y76.515 E.07802
G1 X147.701 Y76.515 E.01975
G1 X149.667 Y78.482 E.10595
G1 X149.667 Y79 E.01975
G1 X147.182 Y76.515 E.13388
G1 X146.664 Y76.515 E.01975
G1 X149.667 Y79.518 E.16181
G1 X149.667 Y80.037 E.01975
G1 X146.146 Y76.515 E.18974
G1 X145.627 Y76.515 E.01975
G1 X149.667 Y80.555 E.21766
G1 X149.667 Y81.074 E.01975
G1 X145.109 Y76.515 E.24559
G1 X144.591 Y76.515 E.01975
G1 X149.667 Y81.592 E.27352
G1 X149.667 Y82.11 E.01975
G1 X144.072 Y76.515 E.30145
G1 X143.554 Y76.515 E.01975
G1 X149.667 Y82.629 E.32938
G1 X149.667 Y83.147 E.01975
G1 X143.035 Y76.515 E.35731
G1 X142.517 Y76.515 E.01975
G1 X149.667 Y83.665 E.38524
G1 X149.667 Y84.184 E.01975
G1 X141.999 Y76.515 E.41317
G1 X141.48 Y76.515 E.01975
G1 X149.667 Y84.702 E.4411
G1 X149.667 Y85.221 E.01975
G1 X141.369 Y76.923 E.44707
G1 X141.369 Y77.441 E.01975
G1 X149.667 Y85.739 E.44707
G1 X149.667 Y86.257 E.01975
G1 X141.369 Y77.959 E.44707
G1 X141.369 Y78.478 E.01975
G1 X149.667 Y86.776 E.44707
G1 X149.667 Y87.294 E.01975
G1 X141.369 Y78.996 E.44707
G1 X141.369 Y79.515 E.01975
G1 X149.667 Y87.812 E.44707
G1 X149.667 Y88.331 E.01975
G1 X141.369 Y80.033 E.44707
G1 X141.369 Y80.551 E.01975
G1 X149.667 Y88.849 E.44707
