; generated by Slic3r Prusa Edition 1.41.0+win64 on 2018-11-04 at 14:45:09

; 

; external perimeters extrusion width = 0.45mm
; perimeters extrusion width = 0.45mm
; infill extrusion width = 0.45mm
; solid infill extrusion width = 0.45mm
; top infill extrusion width = 0.40mm
; first layer extrusion width = 0.42mm

M201 X1000 Y1000 Z1000 E5000 ; sets maximum accelerations, mm/sec^2
M203 X200 Y200 Z12 E120 ; sets maximum feedrates, mm/sec
M204 P1250 R1250 T1250 ; sets acceleration (P, T) and retract acceleration (R), mm/sec^2
M205 X8.00 Y8.00 Z0.40 E1.50 ; sets the jerk limits, mm/sec
M205 S0 T0 ; sets the minimum extruding and travel feed rate, mm/sec
M107
M115 U3.4.1 ; tell printer latest fw version
M83  ; extruder relative mode
M104 S215 ; set extruder temp
M140 S60 ; set bed temp
M190 S60 ; wait for bed temp
M109 S215 ; wait for extruder temp
G28 W ; home all without mesh bed level
G80 ; mesh bed leveling
G1 Y-3.0 F1000.0 ; go outside print area
G92 E0.0
G1 X60.0 E9.0  F1000.0 ; intro line
M73 Q0 S101
M73 P0 R100
G1 X100.0 E12.5  F1000.0 ; intro line
G92 E0.0
M221 S95
M900 K30; Filament gcode
G21 ; set units to millimeters
G90 ; use absolute coordinates
M83 ; use relative distances for extrusion
;BEFORE_LAYER_CHANGE
G92 E0.0
;0.2


G1 E-0.80000 F2100.00000
G1 Z0.600 F10800.000
;AFTER_LAYER_CHANGE
;0.2
G1 X92.716 Y68.138
G1 Z0.200
G1 E0.80000 F2100.00000
M204 S1000
G1 F1200
G1 X93.477 Y67.374 E0.03381
G1 X94.482 Y66.734 E0.03736
G1 X95.460 Y66.374 E0.03267
G1 X96.493 Y66.218 E0.03274
G1 X153.304 Y66.211 E1.78126
G1 X154.169 Y66.294 E0.02725
G1 X154.864 Y66.469 E0.02249
G1 X155.688 Y66.821 E0.02810
G1 X156.297 Y67.201 E0.02249
G1 X156.847 Y67.662 E0.02251
G1 X157.433 Y68.331 E0.02788
G1 X157.820 Y68.943 E0.02271
G1 X158.163 Y69.734 E0.02705
G1 X166.978 Y104.002 E1.10941
G1 X167.079 Y104.656 E0.02074
G1 X167.077 Y105.388 E0.02298
G1 X166.983 Y105.978 E0.01872
G1 X158.273 Y139.901 E1.09813
G1 X157.924 Y140.851 E0.03172
G1 X157.291 Y141.853 E0.03717
G1 X156.520 Y142.628 E0.03428
G1 X155.478 Y143.286 E0.03863
G1 X154.485 Y143.639 E0.03304
G1 X153.278 Y143.788 E0.03814
G1 X96.660 Y143.788 E1.77523
G1 X95.771 Y143.695 E0.02802
G1 X94.897 Y143.446 E0.02850
G1 X94.214 Y143.127 E0.02362
G1 X93.490 Y142.636 E0.02744
G1 X92.935 Y142.116 E0.02384
G1 X92.383 Y141.401 E0.02833
G1 X92.034 Y140.762 E0.02284
G1 X91.738 Y139.939 E0.02741
G1 X83.021 Y105.995 E1.09884
G1 X82.906 Y105.023 E0.03067
G1 X83.020 Y104.007 E0.03205
G1 X91.729 Y70.092 E1.09790
G1 X92.081 Y69.138 E0.03189
G1 X92.684 Y68.188 E0.03526
; PURGING FINISHED
G1 F8640
G1 X93.477 Y67.374 E-0.26252
G1 X94.482 Y66.734 E-0.27515
G1 X95.386 Y66.402 E-0.22233
G1 E-0.04000 F2100.00000
G1 Z0.800 F10800.000
G1 X140.531 Y74.785
G1 Z0.200
G1 E0.80000 F2100.00000
G1 F1200
G1 X143.260 Y72.563 E0.11035
G1 X144.330 Y73.600 E0.04673
G1 X144.996 Y74.330 E0.03097
G1 X145.616 Y75.096 E0.03091
G1 X146.192 Y75.897 E0.03094
G1 X146.719 Y76.732 E0.03097
G1 X147.196 Y77.596 E0.03092
G1 X147.621 Y78.486 E0.03095
G1 X147.993 Y79.401 E0.03097
G1 X148.310 Y80.337 E0.03096
G1 X148.570 Y81.287 E0.03089
G1 X148.774 Y82.252 E0.03093
G1 X148.922 Y83.228 E0.03094
G1 X149.011 Y84.211 E0.03096
G1 X149.041 Y85.199 E0.03098
G1 X149.011 Y86.186 E0.03095
G1 X148.922 Y87.168 E0.03093
G1 X148.776 Y88.144 E0.03093
G1 X148.572 Y89.110 E0.03096
G1 X148.311 Y90.062 E0.03096
G1 X147.994 Y90.996 E0.03092
G1 X147.623 Y91.911 E0.03095
G1 X147.198 Y92.802 E0.03095
G1 X146.722 Y93.667 E0.03095
G1 X146.195 Y94.501 E0.03092
G1 X145.620 Y95.302 E0.03093
G1 X144.999 Y96.070 E0.03096
G1 X144.333 Y96.797 E0.03093
G1 X143.263 Y97.838 E0.04678
G1 X140.535 Y95.616 E0.11031
G1 X141.726 Y94.502 E0.05115
G1 X142.362 Y93.813 E0.02941
G1 X142.950 Y93.081 E0.02943
G1 X143.483 Y92.308 E0.02941
G1 X143.959 Y91.501 E0.02941
G1 X144.378 Y90.660 E0.02946
G1 X144.738 Y89.792 E0.02944
G1 X145.033 Y88.901 E0.02943
G1 X145.265 Y87.991 E0.02944
G1 X145.431 Y87.069 E0.02940
G1 X145.531 Y86.135 E0.02943
G1 X145.566 Y85.199 E0.02938
G1 X145.531 Y84.262 E0.02939
G1 X145.429 Y83.330 E0.02940
G1 X145.262 Y82.406 E0.02945
G1 X145.030 Y81.496 E0.02943
G1 X144.734 Y80.607 E0.02939
G1 X144.376 Y79.739 E0.02943
G1 X143.956 Y78.900 E0.02943
G1 X143.478 Y78.091 E0.02945
G1 X142.944 Y77.320 E0.02941
G1 X142.357 Y76.589 E0.02940
G1 X141.719 Y75.900 E0.02943
G1 X140.575 Y74.826 E0.04921
G1 X141.103 Y74.805 F10800.000
G1 F1200
G1 X143.238 Y73.067 E0.08632
G1 X144.059 Y73.863 E0.03587
G1 X144.710 Y74.576 E0.03026
G1 X145.316 Y75.325 E0.03021
G1 X145.879 Y76.108 E0.03025
G1 X146.395 Y76.924 E0.03027
G1 X146.861 Y77.768 E0.03022
G1 X147.276 Y78.639 E0.03025
G1 X147.639 Y79.533 E0.03027
G1 X147.949 Y80.447 E0.03026
G1 X148.203 Y81.376 E0.03020
G1 X148.403 Y82.320 E0.03024
G1 X148.547 Y83.273 E0.03024
G1 X148.635 Y84.234 E0.03025
G1 X148.664 Y85.199 E0.03027
G1 X148.635 Y86.163 E0.03024
G1 X148.547 Y87.123 E0.03024
G1 X148.405 Y88.077 E0.03023
G1 X148.205 Y89.021 E0.03025
G1 X147.950 Y89.952 E0.03026
G1 X147.640 Y90.865 E0.03023
G1 X147.278 Y91.759 E0.03025
G1 X146.863 Y92.630 E0.03025
G1 X146.397 Y93.475 E0.03025
G1 X145.882 Y94.290 E0.03022
G1 X145.320 Y95.073 E0.03023
G1 X144.713 Y95.823 E0.03026
G1 X144.062 Y96.535 E0.03023
G1 X143.241 Y97.333 E0.03591
G1 X141.108 Y95.597 E0.08625
G1 X141.994 Y94.768 E0.03804
G1 X142.648 Y94.059 E0.03025
G1 X143.252 Y93.306 E0.03027
G1 X143.800 Y92.512 E0.03026
G1 X144.291 Y91.681 E0.03025
G1 X144.722 Y90.816 E0.03029
G1 X145.091 Y89.924 E0.03028
G1 X145.395 Y89.007 E0.03027
G1 X145.634 Y88.071 E0.03028
G1 X145.805 Y87.122 E0.03024
G1 X145.908 Y86.162 E0.03027
G1 X145.943 Y85.199 E0.03023
G1 X145.908 Y84.235 E0.03025
G1 X145.803 Y83.276 E0.03024
G1 X145.631 Y82.326 E0.03028
G1 X145.392 Y81.390 E0.03028
G1 X145.087 Y80.475 E0.03023
G1 X144.719 Y79.583 E0.03027
G1 X144.287 Y78.719 E0.03028
G1 X143.796 Y77.888 E0.03029
G1 X143.247 Y77.094 E0.03025
G1 X142.643 Y76.342 E0.03024
G1 X141.987 Y75.634 E0.03026
G1 X141.147 Y74.846 E0.03611
G1 X140.840 Y74.504 F10800.000
G1 F8640
G1 X143.238 Y73.067 E-0.63396
G1 X143.630 Y73.447 E-0.12604
G1 E-0.04000 F2100.00000
G1 Z0.800 F10800.000
G1 X139.629 Y75.518
G1 Z0.200
G1 E0.80000 F2100.00000
G1 F1200
G1 X140.714 Y76.478 E0.04543
G1 X141.389 Y77.179 E0.03052
G1 X142.008 Y77.934 E0.03059
G1 X142.562 Y78.736 E0.03059
G1 X143.049 Y79.579 E0.03052
G1 X143.468 Y80.459 E0.03055
G1 X143.814 Y81.370 E0.03056
G1 X144.086 Y82.305 E0.03053
G1 X144.281 Y83.258 E0.03051
G1 X144.400 Y84.225 E0.03055
G1 X144.439 Y85.199 E0.03055
G1 X144.400 Y86.173 E0.03057
G1 X144.282 Y87.141 E0.03055
G1 X144.086 Y88.095 E0.03055
G1 X143.814 Y89.031 E0.03056
G1 X143.468 Y89.941 E0.03054
G1 X143.049 Y90.821 E0.03055
G1 X142.561 Y91.665 E0.03056
G1 X142.007 Y92.466 E0.03055
G1 X141.391 Y93.220 E0.03052
G1 X140.714 Y93.922 E0.03057
G1 X139.630 Y94.881 E0.04537
G1 X136.848 Y92.617 E0.11246
G1 X138.127 Y91.576 E0.05170
G1 X138.761 Y90.939 E0.02819
G1 X139.325 Y90.241 E0.02813
G1 X139.813 Y89.488 E0.02814
G1 X140.220 Y88.687 E0.02817
G1 X140.541 Y87.849 E0.02813
G1 X140.774 Y86.982 E0.02816
G1 X140.915 Y86.096 E0.02813
G1 X140.963 Y85.199 E0.02816
G1 X140.915 Y84.304 E0.02810
G1 X140.774 Y83.417 E0.02816
G1 X140.541 Y82.549 E0.02817
G1 X140.221 Y81.712 E0.02811
G1 X139.813 Y80.912 E0.02817
G1 X139.326 Y80.159 E0.02811
G1 X138.762 Y79.460 E0.02817
G1 X138.129 Y78.824 E0.02811
G1 X136.848 Y77.782 E0.05178
G1 X139.582 Y75.556 E0.11055
G1 X139.619 Y76.012 F10800.000
G1 F1200
G1 X140.453 Y76.750 E0.03492
G1 X141.107 Y77.430 E0.02957
G1 X141.706 Y78.161 E0.02963
G1 X142.243 Y78.938 E0.02963
G1 X142.715 Y79.754 E0.02957
G1 X143.121 Y80.607 E0.02960
G1 X143.456 Y81.490 E0.02961
G1 X143.720 Y82.396 E0.02958
G1 X143.909 Y83.319 E0.02956
G1 X144.024 Y84.256 E0.02959
G1 X144.062 Y85.199 E0.02959
G1 X144.024 Y86.143 E0.02961
G1 X143.910 Y87.080 E0.02959
G1 X143.720 Y88.004 E0.02960
G1 X143.456 Y88.911 E0.02961
G1 X143.121 Y89.793 E0.02959
G1 X142.715 Y90.646 E0.02960
G1 X142.242 Y91.463 E0.02961
G1 X141.705 Y92.239 E0.02960
G1 X141.108 Y92.969 E0.02956
G1 X140.453 Y93.650 E0.02962
G1 X139.620 Y94.386 E0.03487
G1 X137.446 Y92.617 E0.08790
G1 X138.380 Y91.857 E0.03779
G1 X139.043 Y91.191 E0.02943
G1 X139.630 Y90.462 E0.02937
G1 X140.140 Y89.676 E0.02938
G1 X140.565 Y88.840 E0.02940
G1 X140.901 Y87.966 E0.02936
G1 X141.143 Y87.060 E0.02940
G1 X141.291 Y86.136 E0.02936
G1 X141.340 Y85.199 E0.02941
G1 X141.291 Y84.264 E0.02935
G1 X141.143 Y83.339 E0.02939
G1 X140.901 Y82.433 E0.02939
G1 X140.566 Y81.559 E0.02935
G1 X140.140 Y80.723 E0.02941
G1 X139.631 Y79.938 E0.02934
G1 X139.043 Y79.208 E0.02941
G1 X138.382 Y78.544 E0.02934
G1 X137.446 Y77.782 E0.03787
G1 X139.572 Y76.050 E0.08599
G1 X139.856 Y75.690 F10800.000
G1 F8640
G1 X140.453 Y76.750 E-0.25976
G1 X141.107 Y77.430 E-0.21774
G1 X141.706 Y78.161 E-0.21817
G1 X141.864 Y78.390 E-0.06432
G1 E-0.04000 F2100.00000
G1 Z0.800 F10800.000
G1 X135.886 Y78.565
G1 Z0.200
G1 E0.80000 F2100.00000
G1 F1200
G1 X137.007 Y79.344 E0.04280
G1 X137.720 Y79.988 E0.03012
G1 X138.343 Y80.719 E0.03010
G1 X138.869 Y81.523 E0.03012
G1 X139.286 Y82.387 E0.03008
G1 X139.590 Y83.298 E0.03012
G1 X139.776 Y84.240 E0.03011
G1 X139.838 Y85.199 E0.03013
G1 X139.776 Y86.159 E0.03016
G1 X139.590 Y87.101 E0.03011
G1 X139.286 Y88.012 E0.03011
G1 X138.869 Y88.877 E0.03012
G1 X138.343 Y89.681 E0.03010
G1 X137.720 Y90.411 E0.03009
G1 X137.009 Y91.055 E0.03009
G1 X135.887 Y91.835 E0.04283
G1 X132.876 Y89.383 E0.12177
G1 X134.475 Y88.593 E0.05592
G1 X135.114 Y88.097 E0.02538
G1 X135.641 Y87.482 E0.02538
G1 X136.034 Y86.774 E0.02539
G1 X136.277 Y86.003 E0.02535
G1 X136.359 Y85.199 E0.02533
G1 X136.277 Y84.393 E0.02540
G1 X136.035 Y83.621 E0.02537
G1 X135.642 Y82.914 E0.02536
G1 X135.115 Y82.298 E0.02542
G1 X134.478 Y81.802 E0.02532
G1 X132.878 Y81.014 E0.05593
G1 X135.839 Y78.603 E0.11973
G1 X135.904 Y79.037 F10800.000
G1 F1200
G1 X136.772 Y79.640 E0.03314
G1 X137.449 Y80.252 E0.02860
G1 X138.041 Y80.945 E0.02858
G1 X138.540 Y81.709 E0.02861
G1 X138.936 Y82.529 E0.02856
G1 X139.225 Y83.394 E0.02860
G1 X139.401 Y84.289 E0.02859
G1 X139.460 Y85.199 E0.02859
G1 X139.401 Y86.110 E0.02863
G1 X139.225 Y87.005 E0.02859
G1 X138.936 Y87.870 E0.02860
G1 X138.540 Y88.691 E0.02859
G1 X138.041 Y89.454 E0.02858
G1 X137.449 Y90.147 E0.02858
G1 X136.774 Y90.759 E0.02857
G1 X135.905 Y91.363 E0.03317
G1 X133.569 Y89.461 E0.09445
G1 X134.676 Y88.915 E0.03871
G1 X135.376 Y88.371 E0.02778
G1 X135.953 Y87.699 E0.02778
G1 X136.382 Y86.923 E0.02779
G1 X136.648 Y86.079 E0.02775
G1 X136.738 Y85.199 E0.02774
G1 X136.648 Y84.317 E0.02781
G1 X136.383 Y83.472 E0.02776
G1 X135.954 Y82.697 E0.02776
G1 X135.377 Y82.024 E0.02781
G1 X134.679 Y81.481 E0.02772
G1 X133.572 Y80.935 E0.03871
G1 X135.858 Y79.075 E0.09241
G1 X136.116 Y78.698 F10800.000
G1 F8640
G1 X136.772 Y79.640 E-0.24827
G1 X137.449 Y80.252 E-0.21060
G1 X138.041 Y80.945 E-0.21049
G1 X138.255 Y81.274 E-0.09064
G1 E-0.04000 F2100.00000
G1 Z0.800 F10800.000
G1 X133.457 Y82.520
G1 Z0.200
G1 E0.80000 F2100.00000
G1 F1200
G1 X134.397 Y83.149 E0.03547
G1 X135.026 Y84.089 E0.03547
G1 X135.246 Y85.199 E0.03548
G1 X135.026 Y86.309 E0.03548
G1 X134.397 Y87.249 E0.03547
G1 X133.457 Y87.878 E0.03547
G1 X132.347 Y88.098 E0.03548
G1 X131.237 Y87.878 E0.03548
G1 X130.296 Y87.249 E0.03547
G1 X129.668 Y86.309 E0.03547
G1 X129.447 Y85.199 E0.03548
G1 X129.668 Y84.089 E0.03548
G1 X130.296 Y83.149 E0.03547
G1 X131.237 Y82.520 E0.03547
G1 X132.347 Y82.300 E0.03548
G1 X133.398 Y82.508 E0.03360
G1 X133.309 Y82.875 F10800.000
G1 F1200
G1 X134.125 Y83.421 E0.03076
G1 X134.671 Y84.236 E0.03076
G1 X134.862 Y85.199 E0.03078
G1 X134.671 Y86.162 E0.03078
G1 X134.125 Y86.977 E0.03076
G1 X133.309 Y87.523 E0.03076
G1 X132.347 Y87.714 E0.03077
G1 X131.384 Y87.523 E0.03078
G1 X130.568 Y86.977 E0.03076
G1 X130.023 Y86.162 E0.03076
G1 X129.832 Y85.199 E0.03078
G1 X130.023 Y84.236 E0.03077
G1 X130.568 Y83.421 E0.03076
G1 X131.384 Y82.875 E0.03076
G1 X132.347 Y82.684 E0.03078
G1 X133.251 Y82.863 E0.02889
G1 X133.627 Y82.632 F10800.000
G1 F8640
G1 X134.125 Y83.421 E-0.23941
G1 X134.671 Y84.236 E-0.22656
G1 X134.862 Y85.199 E-0.22664
G1 X134.805 Y85.485 E-0.06740
G1 E-0.04000 F2100.00000
G1 Z0.800 F10800.000
G1 X102.595 Y78.135
G1 Z0.200
G1 E0.80000 F2100.00000
G1 F1200
G1 X102.460 Y78.550 E0.01370
G1 X102.248 Y78.917 E0.01326
G1 X102.085 Y79.116 E0.00808
G1 X101.778 Y79.391 E0.01292
G1 X101.400 Y79.610 E0.01369
G1 X100.985 Y79.745 E0.01370
G1 X100.550 Y79.790 E0.01370
G1 X100.115 Y79.745 E0.01370
G1 X99.700 Y79.610 E0.01370
G1 X99.321 Y79.391 E0.01370
G1 X98.997 Y79.099 E0.01370
G1 X98.740 Y78.745 E0.01370
G1 X98.568 Y78.359 E0.01326
G1 X98.502 Y78.110 E0.00808
G1 X98.460 Y77.700 E0.01292
G1 X98.504 Y77.281 E0.01320
G1 X98.568 Y77.040 E0.00782
G1 X98.740 Y76.655 E0.01322
G1 X98.997 Y76.301 E0.01370
G1 X99.321 Y76.009 E0.01370
G1 X99.700 Y75.790 E0.01370
G1 X100.115 Y75.655 E0.01369
G1 X100.525 Y75.612 E0.01292
G1 X100.782 Y75.624 E0.00808
G1 X101.196 Y75.712 E0.01326
G1 X101.595 Y75.890 E0.01370
G1 X101.949 Y76.147 E0.01370
G1 X102.241 Y76.471 E0.01370
G1 X102.460 Y76.850 E0.01370
G1 X102.595 Y77.265 E0.01370
G1 X102.640 Y77.700 E0.01370
G1 X102.601 Y78.075 E0.01182
G1 X102.226 Y78.036 F10800.000
G1 F1200
G1 X102.113 Y78.396 E0.01184
G1 X101.937 Y78.701 E0.01106
G1 X101.811 Y78.855 E0.00621
G1 X101.556 Y79.084 E0.01078
G1 X101.246 Y79.263 E0.01121
G1 X100.906 Y79.374 E0.01122
G1 X100.550 Y79.411 E0.01122
G1 X100.194 Y79.374 E0.01122
G1 X99.854 Y79.263 E0.01122
G1 X99.544 Y79.084 E0.01122
G1 X99.278 Y78.845 E0.01122
G1 X99.068 Y78.556 E0.01122
G1 X98.925 Y78.233 E0.01106
G1 X98.874 Y78.042 E0.00621
G1 X98.839 Y77.700 E0.01078
G1 X98.876 Y77.350 E0.01104
G1 X98.925 Y77.166 E0.00596
G1 X99.068 Y76.844 E0.01104
G1 X99.278 Y76.555 E0.01122
G1 X99.544 Y76.316 E0.01122
G1 X99.854 Y76.137 E0.01122
G1 X100.194 Y76.026 E0.01121
G1 X100.536 Y75.990 E0.01078
G1 X100.734 Y75.999 E0.00621
G1 X101.079 Y76.073 E0.01106
G1 X101.406 Y76.218 E0.01122
G1 X101.695 Y76.428 E0.01122
G1 X101.934 Y76.694 E0.01122
G1 X102.113 Y77.004 E0.01122
G1 X102.224 Y77.344 E0.01122
G1 X102.261 Y77.700 E0.01122
G1 X102.232 Y77.976 E0.00870
G1 X102.509 Y78.286 F10800.000
G1 F8640
G1 X102.113 Y78.396 E-0.10082
G1 X101.937 Y78.701 E-0.08145
G1 X101.811 Y78.855 E-0.04572
G1 X101.556 Y79.084 E-0.07938
G1 X101.246 Y79.263 E-0.08257
G1 X100.906 Y79.374 E-0.08260
G1 X100.550 Y79.411 E-0.08260
G1 X100.194 Y79.374 E-0.08260
G1 X99.854 Y79.263 E-0.08260
G1 X99.705 Y79.177 E-0.03965
G1 E-0.04000 F2100.00000
G1 Z0.800 F10800.000
G1 X101.196 Y90.712
G1 Z0.200
G1 E0.80000 F2100.00000
G1 F1200
G1 X101.595 Y90.890 E0.01370
G1 X101.949 Y91.147 E0.01370
G1 X102.241 Y91.471 E0.01370
G1 X102.460 Y91.850 E0.01370
G1 X102.595 Y92.265 E0.01370
G1 X102.640 Y92.700 E0.01370
G1 X102.595 Y93.135 E0.01370
G1 X102.460 Y93.550 E0.01370
G1 X102.248 Y93.917 E0.01326
G1 X102.085 Y94.116 E0.00808
G1 X101.778 Y94.391 E0.01292
G1 X101.400 Y94.610 E0.01369
G1 X100.985 Y94.745 E0.01370
G1 X100.550 Y94.790 E0.01370
G1 X100.115 Y94.745 E0.01370
G1 X99.700 Y94.610 E0.01370
G1 X99.321 Y94.391 E0.01370
G1 X98.997 Y94.099 E0.01370
G1 X98.748 Y93.757 E0.01326
G1 X98.632 Y93.526 E0.00808
G1 X98.505 Y93.134 E0.01292
G1 X98.460 Y92.700 E0.01369
G1 X98.505 Y92.265 E0.01370
G1 X98.640 Y91.850 E0.01370
G1 X98.851 Y91.485 E0.01322
G1 X99.008 Y91.291 E0.00782
G1 X99.321 Y91.009 E0.01321
G1 X99.700 Y90.790 E0.01370
G1 X100.115 Y90.656 E0.01369
G1 X100.525 Y90.612 E0.01292
G1 X100.782 Y90.624 E0.00808
G1 X101.137 Y90.700 E0.01138
G1 X100.734 Y90.999 F10800.000
G1 F1200
G1 X101.079 Y91.073 E0.01106
G1 X101.406 Y91.218 E0.01122
G1 X101.695 Y91.428 E0.01122
G1 X101.934 Y91.694 E0.01122
G1 X102.113 Y92.004 E0.01122
G1 X102.224 Y92.344 E0.01122
G1 X102.261 Y92.700 E0.01122
G1 X102.224 Y93.056 E0.01122
G1 X102.113 Y93.396 E0.01122
G1 X101.937 Y93.701 E0.01106
G1 X101.811 Y93.855 E0.00621
G1 X101.556 Y94.084 E0.01078
G1 X101.246 Y94.263 E0.01121
G1 X100.906 Y94.374 E0.01122
G1 X100.550 Y94.411 E0.01122
G1 X100.194 Y94.374 E0.01122
G1 X99.854 Y94.263 E0.01122
G1 X99.544 Y94.084 E0.01122
G1 X99.278 Y93.845 E0.01122
