; generated by PrusaSlicer 2.3.1+win64 on 2021-06-02 at 21:29:42 UTC

; 

; external perimeters extrusion width = 0.45mm
; perimeters extrusion width = 0.45mm
; infill extrusion width = 0.45mm
; solid infill extrusion width = 0.45mm
; top infill extrusion width = 0.40mm
; first layer extrusion width = 0.42mm

M73 P0 R129
M73 Q0 S129
M201 X1000 Y1000 Z200 E5000 ; sets maximum accelerations, mm/sec^2
M203 X200 Y200 Z12 E120 ; sets maximum feedrates, mm/sec
M204 P1250 R1250 T1250 ; sets acceleration (P, T) and retract acceleration (R), mm/sec^2
M205 X8.00 Y8.00 Z0.40 E4.50 ; sets the jerk limits, mm/sec
M205 S0 T0 ; sets the minimum extruding and travel feed rate, mm/sec
M107
;TYPE:Custom
M862.3 P "MK3S" ; printer model check
M862.1 P0.4 ; nozzle diameter check
M115 U3.9.3 ; tell printer latest fw version
G90 ; use absolute coordinates
M83 ; extruder relative mode
M104 S215 ; set extruder temp
M140 S60 ; set bed temp
M190 S60 ; wait for bed temp
M109 S215 ; wait for extruder temp
G28 W ; home all without mesh bed level
G80 ; mesh bed leveling
G1 Y-3.0 F1000.0 ; go outside print area
G92 E0.0
G1 X60.0 E9.0 F1000.0 ; intro line
G1 X100.0 E12.5 F1000.0 ; intro line
G92 E0.0
M221 S95

; Don't change E values below. Excessive value can damage the printer.

M907 E538 ; set extruder motor current
G21 ; set units to millimeters
G90 ; use absolute coordinates
M83 ; use relative distances for extrusion
M900 K0.05 ; Filament gcode LA 1.5
M900 K30 ; Filament gcode LA 1.0
;LAYER_CHANGE
;Z:0.2
;HEIGHT:0.2
;BEFORE_LAYER_CHANGE
G92 E0.0
;0.2


M73 Q0 S128
G1 E-0.80000 F2100.000
G1 Z0.400 F10800.000
;AFTER_LAYER_CHANGE
;0.2
G1 X55.542 Y82.819
G1 Z0.200
G1 E0.80000 F2100.000
M204 S1000
;TYPE:Skirt
;WIDTH:0.42
G1 F1200.000
G1 X56.088 Y82.037 E0.02989
G1 X91.336 Y49.681 E1.50022
G1 X91.735 Y49.388 E0.01550
G1 X92.188 Y49.183 E0.01562
G1 X92.930 Y49.063 E0.02355
G1 X155.944 Y49.063 E1.97576
G1 X156.443 Y49.117 E0.01574
G1 X156.919 Y49.274 E0.01574
G1 X192.200 Y65.467 E1.21716
G1 X192.749 Y65.841 E0.02083
G1 X194.159 Y67.249 E0.06248
G1 X194.464 Y67.657 E0.01597
G1 X194.677 Y68.124 E0.01609
G1 X194.797 Y68.866 E0.02355
G1 X194.797 Y157.340 E2.77404
G1 X194.683 Y158.017 E0.02154
G1 X194.383 Y158.631 E0.02142
G1 X192.787 Y160.283 E0.07203
G1 X192.039 Y160.765 E0.02790
G1 X191.166 Y160.937 E0.02790
G1 X92.654 Y160.920 E3.08876
G1 X91.949 Y160.723 E0.02296
G1 X56.730 Y144.559 E1.21501
G1 X56.001 Y144.036 E0.02813
G1 X55.522 Y143.291 E0.02778
G1 X55.348 Y142.426 E0.02767
G1 X55.348 Y83.756 E1.83954
G1 X55.530 Y82.878 E0.02813
; printing object LED Strip Clip v1.stl id:11 copy 0
;WIPE_START
G1 F8640.000
G1 X56.088 Y82.037 E-0.23293
G1 X57.769 Y80.493 E-0.52707
;WIPE_END
G1 E-0.04000 F2100.000
G1 Z0.600 F10800.000
G1 X164.205 Y77.350
G1 Z0.200
G1 E0.80000 F2100.000
;TYPE:External perimeter
G1 F1200.000
G1 X164.205 Y68.010 E0.29285
G1 X164.601 Y68.010 E0.01243
G1 X164.601 Y77.350 E0.29285
G1 X164.265 Y77.350 E0.01055
G1 X164.210 Y76.950 F10800.000
;WIPE_START
G1 F8640.000
G1 X164.244 Y74.059 E-0.76000
;WIPE_END
G1 E-0.04000 F2100.000
G1 Z0.600 F10800.000
G1 X183.363 Y73.425
G1 Z0.200
G1 E0.80000 F2100.000
;TYPE:Perimeter
G1 F1200.000
G1 X183.287 Y73.044 E0.01218
G1 X183.263 Y72.704 E0.01068
G1 X183.293 Y72.266 E0.01378
G1 X183.364 Y71.932 E0.01068
G1 X183.494 Y71.563 E0.01228
G1 X183.704 Y71.169 E0.01398
G1 X183.937 Y70.855 E0.01228
G1 X184.172 Y70.612 E0.01058
G1 X184.478 Y70.368 E0.01228
G1 X184.861 Y70.146 E0.01388
G1 X185.177 Y70.019 E0.01068
G1 X185.553 Y69.921 E0.01218
G1 X185.945 Y69.875 E0.01238
G1 X186.390 Y69.891 E0.01398
G1 X186.775 Y69.963 E0.01228
G1 X187.096 Y70.067 E0.01058
G1 X187.450 Y70.235 E0.01228
G1 X187.817 Y70.483 E0.01388
G1 X188.070 Y70.711 E0.01068
G1 X188.323 Y71.005 E0.01218
G1 X188.536 Y71.338 E0.01238
G1 X188.717 Y71.745 E0.01398
G1 X188.821 Y72.123 E0.01228
G1 X188.869 Y72.460 E0.01068
G1 X188.869 Y72.900 E0.01378
G1 X188.821 Y73.237 E0.01068
G1 X188.718 Y73.612 E0.01218
G1 X188.562 Y73.974 E0.01238
G1 X188.325 Y74.352 E0.01398
G1 X188.070 Y74.649 E0.01228
G1 X187.817 Y74.877 E0.01068
G1 X187.453 Y75.123 E0.01378
G1 X187.147 Y75.272 E0.01068
G1 X186.776 Y75.397 E0.01228
G1 X186.340 Y75.474 E0.01388
G1 X185.999 Y75.486 E0.01068
G1 X185.609 Y75.450 E0.01228
G1 X185.180 Y75.342 E0.01388
G1 X184.864 Y75.215 E0.01068
G1 X184.523 Y75.023 E0.01228
G1 X184.171 Y74.748 E0.01398
G1 X183.902 Y74.464 E0.01228
G1 X183.702 Y74.188 E0.01068
G1 X183.494 Y73.797 E0.01388
G1 X183.383 Y73.481 E0.01050
G1 X183.739 Y73.356 F10800.000
;TYPE:External perimeter
G1 F1200.000
G1 X183.661 Y72.993 E0.01164
G1 X183.641 Y72.704 E0.00909
G1 X183.668 Y72.318 E0.01213
G1 X183.728 Y72.035 E0.00909
G1 X183.841 Y71.715 E0.01063
G1 X184.023 Y71.371 E0.01220
G1 X184.225 Y71.099 E0.01063
G1 X184.426 Y70.892 E0.00906
G1 X184.691 Y70.680 E0.01063
G1 X185.027 Y70.486 E0.01216
G1 X185.295 Y70.378 E0.00909
G1 X185.622 Y70.292 E0.01059
G1 X185.960 Y70.253 E0.01066
G1 X186.349 Y70.267 E0.01220
G1 X186.682 Y70.329 E0.01063
G1 X186.957 Y70.418 E0.00906
G1 X187.263 Y70.564 E0.01063
G1 X187.584 Y70.781 E0.01216
G1 X187.800 Y70.975 E0.00909
G1 X188.020 Y71.231 E0.01059
G1 X188.203 Y71.517 E0.01066
G1 X188.361 Y71.873 E0.01220
G1 X188.451 Y72.200 E0.01063
G1 X188.492 Y72.487 E0.00909
G1 X188.492 Y72.873 E0.01213
G1 X188.451 Y73.161 E0.00909
G1 X188.362 Y73.486 E0.01059
G1 X188.227 Y73.798 E0.01066
G1 X188.021 Y74.128 E0.01220
G1 X187.800 Y74.385 E0.01063
G1 X187.584 Y74.580 E0.00909
G1 X187.264 Y74.796 E0.01213
G1 X187.003 Y74.923 E0.00909
G1 X186.682 Y75.031 E0.01063
G1 X186.300 Y75.098 E0.01216
G1 X186.010 Y75.109 E0.00909
G1 X185.673 Y75.077 E0.01063
G1 X185.297 Y74.983 E0.01216
G1 X185.028 Y74.874 E0.00909
G1 X184.732 Y74.708 E0.01063
G1 X184.426 Y74.469 E0.01220
G1 X184.193 Y74.222 E0.01063
G1 X184.023 Y73.988 E0.00909
G1 X183.841 Y73.645 E0.01216
G1 X183.759 Y73.413 E0.00773
G1 X183.379 Y73.267 F10800.000
;WIPE_START
G1 F8640.000
G1 X183.661 Y72.993 E-0.09945
G1 X183.641 Y72.704 E-0.06695
G1 X183.668 Y72.318 E-0.08930
G1 X183.728 Y72.035 E-0.06695
G1 X183.841 Y71.715 E-0.07826
G1 X184.023 Y71.371 E-0.08982
G1 X184.225 Y71.099 E-0.07826
G1 X184.426 Y70.892 E-0.06669
G1 X184.691 Y70.680 E-0.07826
G1 X184.864 Y70.580 E-0.04607
;WIPE_END
G1 E-0.04000 F2100.000
G1 Z0.600 F10800.000
G1 X179.492 Y76.973
G1 Z0.200
G1 E0.80000 F2100.000
;TYPE:Perimeter
G1 F1200.000
G1 X179.492 Y68.387 E0.26920
G1 X190.824 Y68.387 E0.35532
G1 X191.633 Y69.196 E0.03586
G1 X191.633 Y76.164 E0.21848
G1 X190.824 Y76.973 E0.03587
G1 X179.552 Y76.973 E0.35343
G1 X179.115 Y77.350 F10800.000
;TYPE:External perimeter
G1 F1200.000
G1 X179.115 Y68.010 E0.29285
G1 X190.980 Y68.010 E0.37204
G1 X192.010 Y69.040 E0.04565
G1 X192.010 Y76.320 E0.22827
G1 X190.980 Y77.350 E0.04566
G1 X179.175 Y77.350 E0.37015
G1 X179.305 Y76.998 F10800.000
;WIPE_START
G1 F8640.000
G1 X179.154 Y74.059 E-0.76000
;WIPE_END
G1 E-0.04000 F2100.000
G1 Z0.600 F10800.000
G1 X191.520 Y69.488
G1 Z0.200
G1 E0.80000 F2100.000
;TYPE:Solid infill
;WIDTH:0.427826
G1 F1200.000
G1 X190.701 Y68.670 E0.03704
G1 X190.157 Y68.670 E0.01742
G1 X191.350 Y69.863 E0.05400
G1 X191.350 Y70.407 E0.01742
G1 X189.613 Y68.670 E0.07864
G1 X189.068 Y68.670 E0.01742
G1 X191.350 Y70.952 E0.10327
G1 X191.350 Y71.496 E0.01742
G1 X188.524 Y68.670 E0.12791
G1 X187.980 Y68.670 E0.01742
G1 X191.350 Y72.040 E0.15255
G1 X191.350 Y72.585 E0.01742
G1 X187.435 Y68.670 E0.17719
G1 X186.891 Y68.670 E0.01742
G1 X191.350 Y73.129 E0.20183
G1 X191.350 Y73.673 E0.01742
G1 X186.177 Y68.500 E0.23415
;WIPE_START
G1 F8640.000
G1 X188.504 Y70.828 E-0.76000
;WIPE_END
G1 E-0.04000 F2100.000
G1 Z0.600 F10800.000
G1 X187.073 Y69.941
G1 Z0.200
G1 E0.80000 F2100.000
G1 F1200.000
G1 X185.802 Y68.670 E0.05751
G1 X185.258 Y68.670 E0.01742
G1 X186.189 Y69.601 E0.04213
G1 X185.933 Y69.592 E0.00817
G1 X185.666 Y69.623 E0.00860
G1 X184.714 Y68.670 E0.04313
G1 X184.169 Y68.670 E0.01742
G1 X185.216 Y69.716 E0.04736
G1 X184.815 Y69.860 E0.01362
G1 X183.625 Y68.670 E0.05386
G1 X183.081 Y68.670 E0.01742
G1 X184.461 Y70.051 E0.06249
G1 X184.318 Y70.133 E0.00530
G1 X184.141 Y70.275 E0.00724
G1 X182.536 Y68.670 E0.07263
G1 X181.992 Y68.670 E0.01742
G1 X183.855 Y70.533 E0.08432
G1 X183.605 Y70.828 E0.01236
G1 X181.448 Y68.670 E0.09766
G1 X180.903 Y68.670 E0.01742
G1 X183.390 Y71.157 E0.11256
G1 X183.209 Y71.520 E0.01300
G1 X180.359 Y68.670 E0.12902
G1 X179.814 Y68.670 E0.01742
G1 X183.075 Y71.931 E0.14760
G1 X183.013 Y72.226 E0.00966
G1 X183.001 Y72.400 E0.00559
G1 X179.775 Y69.174 E0.14601
G1 X179.775 Y69.719 E0.01742
G1 X183.189 Y73.133 E0.15455
;WIPE_START
G1 F8640.000
G1 X180.862 Y70.806 E-0.76000
;WIPE_END
G1 E-0.04000 F2100.000
G1 Z0.600 F10800.000
G1 X188.812 Y71.680
G1 Z0.200
G1 E0.80000 F2100.000
G1 F1200.000
G1 X191.350 Y74.218 E0.11488
G1 X191.350 Y74.762 E0.01742
G1 X189.152 Y72.564 E0.09951
G1 X189.152 Y72.920 E0.01139
G1 X189.128 Y73.085 E0.00534
G1 X191.350 Y75.306 E0.10056
G1 X191.350 Y75.851 E0.01742
G1 X189.033 Y73.534 E0.10488
G1 X188.986 Y73.706 E0.00571
G1 X188.888 Y73.933 E0.00791
G1 X191.176 Y76.221 E0.10358
G1 X190.904 Y76.493 E0.01232
G1 X188.699 Y74.288 E0.09980
G1 X188.477 Y74.610 E0.01252
G1 X190.556 Y76.690 E0.09414
G1 X190.012 Y76.690 E0.01742
G1 X188.218 Y74.897 E0.08118
G1 X187.924 Y75.146 E0.01236
G1 X189.468 Y76.690 E0.06987
G1 X188.923 Y76.690 E0.01742
G1 X187.599 Y75.366 E0.05995
G1 X187.231 Y75.542 E0.01306
G1 X188.379 Y76.690 E0.05195
G1 X187.835 Y76.690 E0.01742
G1 X186.821 Y75.677 E0.04587
G1 X186.357 Y75.757 E0.01508
G1 X187.290 Y76.690 E0.04225
G1 X186.746 Y76.690 E0.01742
G1 X185.620 Y75.564 E0.05096
;WIPE_START
G1 F8640.000
G1 X186.746 Y76.690 E-0.36769
G1 X187.290 Y76.690 E-0.12569
G1 X186.474 Y75.874 E-0.26662
;WIPE_END
G1 E-0.04000 F2100.000
G1 Z0.600 F10800.000
G1 X186.371 Y76.860
G1 Z0.200
G1 E0.80000 F2100.000
G1 F1200.000
G1 X185.134 Y75.622 E0.05600
G1 X184.741 Y75.470 E0.01349
G1 X184.365 Y75.259 E0.01380
G1 X183.980 Y74.958 E0.01563
G1 X183.684 Y74.644 E0.01380
G1 X183.462 Y74.338 E0.01212
G1 X183.235 Y73.911 E0.01548
G1 X183.132 Y73.621 E0.00984
G1 X179.775 Y70.263 E0.15199
G1 X179.775 Y70.807 E0.01742
G1 X185.657 Y76.690 E0.26627
G1 X185.113 Y76.690 E0.01742
G1 X179.775 Y71.352 E0.24163
G1 X179.775 Y71.896 E0.01742
G1 X184.569 Y76.690 E0.21699
G1 X184.024 Y76.690 E0.01742
G1 X179.775 Y72.440 E0.19235
G1 X179.775 Y72.985 E0.01742
G1 X183.480 Y76.690 E0.16771
G1 X182.936 Y76.690 E0.01742
G1 X179.775 Y73.529 E0.14308
G1 X179.775 Y74.073 E0.01742
G1 X182.391 Y76.690 E0.11844
G1 X181.847 Y76.690 E0.01742
G1 X179.775 Y74.618 E0.09380
G1 X179.775 Y75.162 E0.01742
G1 X181.303 Y76.690 E0.06916
G1 X180.758 Y76.690 E0.01742
G1 X179.775 Y75.706 E0.04453
G1 X179.775 Y76.251 E0.01742
M73 P0 R128
G1 X180.384 Y76.860 E0.02757
; stop printing object LED Strip Clip v1.stl id:11 copy 0
; printing object LED Strip Clip v1.stl id:9 copy 0
;WIPE_START
G1 F8640.000
G1 X179.775 Y76.251 E-0.19889
G1 X179.775 Y75.706 E-0.12569
G1 X180.758 Y76.690 E-0.32123
G1 X181.253 Y76.690 E-0.11419
;WIPE_END
G1 E-0.04000 F2100.000
G1 Z0.600 F10800.000
G1 X164.601 Y84.170
G1 Z0.200
G1 E0.80000 F2100.000
;TYPE:External perimeter
;WIDTH:0.42
G1 F1200.000
G1 X164.601 Y93.510 E0.29285
G1 X164.205 Y93.510 E0.01243
G1 X164.205 Y84.170 E0.29285
G1 X164.541 Y84.170 E0.01055
G1 X164.596 Y84.570 F10800.000
;WIPE_START
G1 F8640.000
G1 X164.563 Y87.461 E-0.76000
;WIPE_END
G1 E-0.04000 F2100.000
G1 Z0.600 F10800.000
G1 X183.494 Y87.723
G1 Z0.200
G1 E0.80000 F2100.000
;TYPE:Perimeter
G1 F1200.000
G1 X183.704 Y87.329 E0.01398
G1 X183.937 Y87.015 E0.01228
G1 X184.172 Y86.772 E0.01058
G1 X184.478 Y86.528 E0.01228
G1 X184.861 Y86.306 E0.01388
G1 X185.177 Y86.179 E0.01068
G1 X185.553 Y86.081 E0.01218
G1 X185.945 Y86.035 E0.01238
G1 X186.390 Y86.051 E0.01398
G1 X186.775 Y86.123 E0.01228
G1 X187.096 Y86.227 E0.01058
G1 X187.450 Y86.395 E0.01228
G1 X187.817 Y86.643 E0.01388
G1 X188.070 Y86.871 E0.01068
G1 X188.323 Y87.165 E0.01218
G1 X188.536 Y87.498 E0.01238
G1 X188.717 Y87.905 E0.01398
G1 X188.821 Y88.283 E0.01228
G1 X188.869 Y88.620 E0.01068
G1 X188.869 Y89.060 E0.01378
G1 X188.821 Y89.397 E0.01068
G1 X188.718 Y89.772 E0.01218
G1 X188.562 Y90.134 E0.01238
G1 X188.325 Y90.512 E0.01398
G1 X188.070 Y90.809 E0.01228
G1 X187.817 Y91.037 E0.01068
G1 X187.453 Y91.283 E0.01378
G1 X187.147 Y91.432 E0.01068
G1 X186.776 Y91.557 E0.01228
G1 X186.340 Y91.634 E0.01388
G1 X185.999 Y91.646 E0.01068
G1 X185.609 Y91.610 E0.01228
G1 X185.180 Y91.502 E0.01388
G1 X184.864 Y91.375 E0.01068
G1 X184.523 Y91.183 E0.01228
G1 X184.171 Y90.908 E0.01398
G1 X183.902 Y90.624 E0.01228
G1 X183.702 Y90.348 E0.01068
G1 X183.494 Y89.957 E0.01388
G1 X183.363 Y89.585 E0.01238
G1 X183.287 Y89.204 E0.01218
G1 X183.263 Y88.864 E0.01068
G1 X183.293 Y88.426 E0.01378
G1 X183.364 Y88.092 E0.01068
G1 X183.474 Y87.780 E0.01040
G1 X183.830 Y87.905 F10800.000
;TYPE:External perimeter
G1 F1200.000
G1 X184.023 Y87.531 E0.01318
G1 X184.225 Y87.259 E0.01063
G1 X184.426 Y87.052 E0.00906
G1 X184.691 Y86.840 E0.01063
G1 X185.027 Y86.646 E0.01216
G1 X185.295 Y86.538 E0.00909
G1 X185.622 Y86.452 E0.01059
G1 X185.960 Y86.413 E0.01066
G1 X186.349 Y86.427 E0.01220
G1 X186.682 Y86.489 E0.01063
G1 X186.957 Y86.578 E0.00906
G1 X187.263 Y86.724 E0.01063
G1 X187.584 Y86.941 E0.01216
G1 X187.800 Y87.135 E0.00909
G1 X188.020 Y87.391 E0.01059
G1 X188.203 Y87.677 E0.01066
G1 X188.361 Y88.033 E0.01220
G1 X188.451 Y88.360 E0.01063
G1 X188.492 Y88.647 E0.00909
G1 X188.492 Y89.033 E0.01213
G1 X188.451 Y89.321 E0.00909
G1 X188.362 Y89.646 E0.01059
G1 X188.227 Y89.958 E0.01066
G1 X188.021 Y90.288 E0.01220
G1 X187.800 Y90.545 E0.01063
G1 X187.584 Y90.739 E0.00909
G1 X187.264 Y90.956 E0.01213
G1 X187.003 Y91.083 E0.00909
G1 X186.682 Y91.191 E0.01063
G1 X186.300 Y91.258 E0.01216
G1 X186.010 Y91.269 E0.00909
G1 X185.673 Y91.237 E0.01063
G1 X185.297 Y91.143 E0.01216
G1 X185.028 Y91.034 E0.00909
G1 X184.732 Y90.868 E0.01063
G1 X184.426 Y90.629 E0.01220
G1 X184.193 Y90.382 E0.01063
G1 X184.023 Y90.148 E0.00909
G1 X183.841 Y89.805 E0.01216
G1 X183.728 Y89.484 E0.01066
G1 X183.661 Y89.153 E0.01059
G1 X183.641 Y88.864 E0.00909
G1 X183.668 Y88.478 E0.01213
G1 X183.728 Y88.195 E0.00909
G1 X183.810 Y87.961 E0.00776
G1 X183.592 Y87.583 F10800.000
;WIPE_START
G1 F8640.000
G1 X184.023 Y87.531 E-0.11077
G1 X184.225 Y87.259 E-0.07826
G1 X184.426 Y87.052 E-0.06669
G1 X184.691 Y86.840 E-0.07826
G1 X185.027 Y86.646 E-0.08956
G1 X185.295 Y86.538 E-0.06695
G1 X185.622 Y86.452 E-0.07800
G1 X185.960 Y86.413 E-0.07852
G1 X186.349 Y86.427 E-0.08982
G1 X186.448 Y86.445 E-0.02317
;WIPE_END
G1 E-0.04000 F2100.000
G1 Z0.600 F10800.000
G1 X179.492 Y84.547
G1 Z0.200
G1 E0.80000 F2100.000
;TYPE:Perimeter
G1 F1200.000
G1 X190.824 Y84.547 E0.35532
G1 X191.633 Y85.356 E0.03586
G1 X191.633 Y92.324 E0.21848
G1 X190.824 Y93.133 E0.03587
G1 X179.492 Y93.133 E0.35531
G1 X179.492 Y84.607 E0.26732
G1 X179.115 Y84.170 F10800.000
;TYPE:External perimeter
G1 F1200.000
G1 X190.980 Y84.170 E0.37204
G1 X192.010 Y85.200 E0.04565
G1 X192.010 Y92.480 E0.22827
G1 X190.980 Y93.510 E0.04566
G1 X179.115 Y93.510 E0.37203
G1 X179.115 Y84.230 E0.29097
G1 X179.505 Y84.258 F10800.000
;WIPE_START
G1 F8640.000
G1 X182.406 Y84.213 E-0.76000
;WIPE_END
G1 E-0.04000 F2100.000
G1 Z0.600 F10800.000
G1 X191.520 Y85.648
G1 Z0.200
G1 E0.80000 F2100.000
;TYPE:Solid infill
;WIDTH:0.427826
G1 F1200.000
G1 X190.701 Y84.830 E0.03704
G1 X190.157 Y84.830 E0.01742
G1 X191.350 Y86.023 E0.05400
G1 X191.350 Y86.567 E0.01742
G1 X189.613 Y84.830 E0.07864
G1 X189.068 Y84.830 E0.01742
G1 X191.350 Y87.112 E0.10327
G1 X191.350 Y87.656 E0.01742
G1 X188.524 Y84.830 E0.12791
G1 X187.980 Y84.830 E0.01742
G1 X191.350 Y88.200 E0.15255
G1 X191.350 Y88.745 E0.01742
G1 X187.435 Y84.830 E0.17719
G1 X186.891 Y84.830 E0.01742
G1 X191.350 Y89.289 E0.20183
G1 X191.350 Y89.833 E0.01742
G1 X186.177 Y84.660 E0.23415
;WIPE_START
G1 F8640.000
G1 X188.504 Y86.988 E-0.76000
;WIPE_END
G1 E-0.04000 F2100.000
G1 Z0.600 F10800.000
G1 X187.073 Y86.101
G1 Z0.200
G1 E0.80000 F2100.000
G1 F1200.000
G1 X185.802 Y84.830 E0.05751
G1 X185.258 Y84.830 E0.01742
