; generated by PrusaSlicer 2.3.1+win64 on 2021-06-09 at 01:52:55 UTC

; 

; external perimeters extrusion width = 0.45mm
; perimeters extrusion width = 0.45mm
; infill extrusion width = 0.45mm
; solid infill extrusion width = 0.45mm
; top infill extrusion width = 0.40mm
; first layer extrusion width = 0.42mm

M73 P0 R7
M73 Q0 S7
M201 X1000 Y1000 Z200 E5000 ; sets maximum accelerations, mm/sec^2
M203 X200 Y200 Z12 E120 ; sets maximum feedrates, mm/sec
M204 P1250 R1250 T1250 ; sets acceleration (P, T) and retract acceleration (R), mm/sec^2
M205 X8.00 Y8.00 Z0.40 E4.50 ; sets the jerk limits, mm/sec
M205 S0 T0 ; sets the minimum extruding and travel feed rate, mm/sec
M107
;TYPE:Custom
M862.3 P "MK3S" ; printer model check
M862.1 P0.4 ; nozzle diameter check
M115 U3.10.0 ; tell printer latest fw version
G90 ; use absolute coordinates
M83 ; extruder relative mode
M104 S215 ; set extruder temp
M140 S60 ; set bed temp
M190 S60 ; wait for bed temp
M109 S215 ; wait for extruder temp
G28 W ; home all without mesh bed level
G80 ; mesh bed leveling
G1 Y-3.0 F1000.0 ; go outside print area
G92 E0.0
G1 X60.0 E9.0 F1000.0 ; intro line
G1 X100.0 E12.5 F1000.0 ; intro line
G92 E0.0
M221 S95

; Don't change E values below. Excessive value can damage the printer.

M907 E538 ; set extruder motor current
G21 ; set units to millimeters
G90 ; use absolute coordinates
M83 ; use relative distances for extrusion
M900 K0.05 ; Filament gcode LA 1.5
M900 K30 ; Filament gcode LA 1.0
;LAYER_CHANGE
;Z:0.2
;HEIGHT:0.2
;BEFORE_LAYER_CHANGE
G92 E0.0
;0.2


M73 P1 R7
M73 Q1 S7
G1 E-0.80000 F2100.000
G1 Z0.400 F10800.000
;AFTER_LAYER_CHANGE
;0.2
G1 X108.293 Y98.328
G1 Z0.200
G1 E0.80000 F2100.000
M204 S1000
;TYPE:Skirt
;WIDTH:0.42
G1 F1200.000
G1 X108.779 Y97.803 E0.02243
G1 X109.380 Y97.422 E0.02231
G1 X109.934 Y97.233 E0.01835
G1 X110.515 Y97.166 E0.01835
G1 X138.339 Y97.166 E0.87240
M73 P2 R7
M73 Q2 S7
G1 X139.359 Y97.363 E0.03258
G1 X140.234 Y97.925 E0.03258
G1 X141.870 Y99.623 E0.07393
G1 X142.201 Y100.271 E0.02282
G1 X142.351 Y100.983 E0.02282
G1 X142.359 Y108.835 E0.24619
G1 X142.279 Y109.468 E0.02001
G1 X142.041 Y110.095 E0.02103
G1 X141.658 Y110.646 E0.02103
G1 X140.169 Y112.134 E0.06603
G1 X139.497 Y112.577 E0.02523
G1 X138.939 Y112.767 E0.01848
G1 X138.358 Y112.834 E0.01835
G1 X110.421 Y112.832 E0.87593
G1 X109.682 Y112.697 E0.02358
G1 X109.009 Y112.369 E0.02345
G1 X108.447 Y111.870 E0.02358
G1 X108.043 Y111.241 E0.02345
G1 X107.857 Y110.703 E0.01784
G1 X107.787 Y110.138 E0.01784
G1 X107.799 Y99.654 E0.32872
G1 X107.959 Y98.961 E0.02231
G1 X108.265 Y98.381 E0.02055
G1 X108.596 Y98.556 F10800.000
G1 F1200.000
G1 X109.031 Y98.083 E0.02014
G1 X109.563 Y97.753 E0.01965
G1 X110.033 Y97.598 E0.01550
G1 X110.524 Y97.543 E0.01550
G1 X138.339 Y97.543 E0.87211
M73 P3 R7
M73 Q3 S7
G1 X139.223 Y97.715 E0.02825
G1 X139.980 Y98.204 E0.02825
G1 X141.548 Y99.821 E0.07061
G1 X141.846 Y100.397 E0.02036
G1 X141.977 Y101.033 E0.02036
G1 X141.982 Y108.829 E0.24443
G1 X141.917 Y109.361 E0.01680
G1 X141.709 Y109.916 E0.01858
G1 X141.370 Y110.402 E0.01858
G1 X139.922 Y111.850 E0.06421
G1 X139.311 Y112.247 E0.02284
G1 X138.842 Y112.402 E0.01550
G1 X138.351 Y112.457 E0.01550
G1 X110.449 Y112.455 E0.87484
G1 X109.802 Y112.340 E0.02060
G1 X109.212 Y112.051 E0.02060
G1 X108.723 Y111.613 E0.02060
G1 X108.373 Y111.057 E0.02060
G1 X108.164 Y110.123 E0.03001
G1 X108.173 Y99.707 E0.32659
G1 X108.311 Y99.096 E0.01965
G1 X108.568 Y98.609 E0.01725
; printing object LED Strip Clip.stl id:0 copy 0
;WIPE_START
G1 F8640.000
G1 X109.031 Y98.083 E-0.16178
G1 X109.563 Y97.753 E-0.14470
G1 X110.033 Y97.598 E-0.11413
G1 X110.524 Y97.543 E-0.11413
G1 X111.500 Y97.543 E-0.22526
;WIPE_END
G1 E-0.04000 F2100.000
G1 Z0.600 F10800.000
G1 X111.390 Y100.330
G1 Z0.200
M73 Q4 S7
G1 E0.80000 F2100.000
;TYPE:External perimeter
G1 F1200.000
G1 X111.786 Y100.330 E0.01243
G1 X111.786 Y109.670 E0.29285
M73 P4 R7
G1 X111.390 Y109.670 E0.01243
G1 X111.390 Y100.390 E0.29097
G1 X111.736 Y100.523 F10800.000
;WIPE_START
G1 F8640.000
G1 X111.786 Y100.330 E-0.09262
G1 X111.786 Y103.220 E-0.66738
;WIPE_END
G1 E-0.04000 F2100.000
G1 Z0.600 F10800.000
G1 X130.478 Y104.586
G1 Z0.200
G1 E0.80000 F2100.000
;TYPE:Perimeter
G1 F1200.000
G1 X130.549 Y104.252 E0.01068
G1 X130.679 Y103.883 E0.01228
G1 X130.889 Y103.489 E0.01398
G1 X131.122 Y103.175 E0.01228
G1 X131.357 Y102.932 E0.01058
G1 X131.663 Y102.688 E0.01228
G1 X132.046 Y102.466 E0.01388
G1 X132.362 Y102.339 E0.01068
G1 X132.738 Y102.241 E0.01218
G1 X133.130 Y102.195 E0.01238
G1 X133.575 Y102.211 E0.01398
G1 X133.960 Y102.283 E0.01228
G1 X134.281 Y102.387 E0.01058
G1 X134.635 Y102.555 E0.01228
G1 X135.002 Y102.803 E0.01388
G1 X135.255 Y103.031 E0.01068
G1 X135.508 Y103.325 E0.01218
G1 X135.721 Y103.658 E0.01238
G1 X135.902 Y104.065 E0.01398
G1 X136.006 Y104.443 E0.01228
G1 X136.054 Y104.780 E0.01068
G1 X136.054 Y105.220 E0.01378
G1 X136.006 Y105.557 E0.01068
G1 X135.903 Y105.932 E0.01218
G1 X135.747 Y106.294 E0.01238
G1 X135.510 Y106.672 E0.01398
G1 X135.255 Y106.969 E0.01228
G1 X135.002 Y107.197 E0.01068
G1 X134.638 Y107.443 E0.01378
G1 X134.332 Y107.592 E0.01068
G1 X133.961 Y107.717 E0.01228
G1 X133.525 Y107.794 E0.01388
G1 X133.184 Y107.806 E0.01068
G1 X132.794 Y107.770 E0.01228
G1 X132.365 Y107.662 E0.01388
G1 X132.049 Y107.535 E0.01068
G1 X131.708 Y107.343 E0.01228
G1 X131.356 Y107.068 E0.01398
G1 X131.087 Y106.784 E0.01228
G1 X130.887 Y106.508 E0.01068
G1 X130.679 Y106.117 E0.01388
G1 X130.548 Y105.745 E0.01238
G1 X130.472 Y105.364 E0.01218
G1 X130.448 Y105.024 E0.01068
G1 X130.474 Y104.645 E0.01190
G1 X130.850 Y104.672 F10800.000
;TYPE:External perimeter
G1 F1200.000
G1 X130.913 Y104.355 E0.01014
G1 X131.026 Y104.035 E0.01063
G1 X131.208 Y103.691 E0.01220
G1 X131.410 Y103.419 E0.01063
G1 X131.611 Y103.212 E0.00906
G1 X131.876 Y103.000 E0.01063
G1 X132.212 Y102.806 E0.01216
G1 X132.480 Y102.698 E0.00909
G1 X132.807 Y102.612 E0.01059
G1 X133.145 Y102.573 E0.01066
G1 X133.534 Y102.587 E0.01220
G1 X133.867 Y102.649 E0.01063
G1 X134.142 Y102.738 E0.00906
G1 X134.448 Y102.884 E0.01063
G1 X134.769 Y103.101 E0.01216
G1 X134.985 Y103.295 E0.00909
G1 X135.205 Y103.551 E0.01059
G1 X135.388 Y103.837 E0.01066
G1 X135.546 Y104.193 E0.01220
G1 X135.636 Y104.520 E0.01063
G1 X135.677 Y104.807 E0.00909
G1 X135.677 Y105.193 E0.01213
G1 X135.636 Y105.480 E0.00909
G1 X135.547 Y105.806 E0.01059
G1 X135.412 Y106.118 E0.01066
G1 X135.206 Y106.448 E0.01220
G1 X134.985 Y106.705 E0.01063
G1 X134.769 Y106.899 E0.00909
G1 X134.449 Y107.116 E0.01213
G1 X134.188 Y107.243 E0.00909
G1 X133.867 Y107.351 E0.01063
G1 X133.485 Y107.418 E0.01216
G1 X133.195 Y107.429 E0.00909
G1 X132.858 Y107.397 E0.01063
G1 X132.482 Y107.303 E0.01216
G1 X132.213 Y107.194 E0.00909
G1 X131.917 Y107.028 E0.01063
G1 X131.611 Y106.789 E0.01220
G1 X131.378 Y106.542 E0.01063
G1 X131.208 Y106.308 E0.00909
G1 X131.026 Y105.965 E0.01216
G1 X130.913 Y105.644 E0.01066
G1 X130.846 Y105.313 E0.01059
G1 X130.826 Y105.024 E0.00909
G1 X130.846 Y104.732 E0.00919
G1 X130.594 Y104.475 F10800.000
;WIPE_START
G1 F8640.000
G1 X130.913 Y104.355 E-0.08841
G1 X131.026 Y104.035 E-0.07826
G1 X131.208 Y103.691 E-0.08982
G1 X131.410 Y103.419 E-0.07826
G1 X131.611 Y103.212 E-0.06669
G1 X131.876 Y103.000 E-0.07826
G1 X132.212 Y102.806 E-0.08956
G1 X132.480 Y102.698 E-0.06695
G1 X132.807 Y102.612 E-0.07800
G1 X133.004 Y102.589 E-0.04580
;WIPE_END
G1 E-0.04000 F2100.000
G1 Z0.600 F10800.000
G1 X126.677 Y100.707
G1 Z0.200
G1 E0.80000 F2100.000
;TYPE:Perimeter
G1 F1200.000
G1 X138.009 Y100.707 E0.35532
M73 Q5 S7
G1 X138.818 Y101.516 E0.03586
G1 X138.818 Y108.484 E0.21848
M73 P5 R7
G1 X138.009 Y109.293 E0.03587
G1 X126.677 Y109.293 E0.35531
G1 X126.677 Y100.767 E0.26732
G1 X126.300 Y100.330 F10800.000
;TYPE:External perimeter
G1 F1200.000
G1 X138.165 Y100.330 E0.37204
G1 X139.195 Y101.360 E0.04565
G1 X139.195 Y108.640 E0.22827
G1 X138.165 Y109.670 E0.04566
G1 X126.300 Y109.670 E0.37203
G1 X126.300 Y100.390 E0.29097
G1 X126.690 Y100.418 F10800.000
;WIPE_START
G1 F8640.000
G1 X129.591 Y100.373 E-0.76000
;WIPE_END
G1 E-0.04000 F2100.000
G1 Z0.600 F10800.000
G1 X138.705 Y101.808
G1 Z0.200
G1 E0.80000 F2100.000
;TYPE:Solid infill
;WIDTH:0.427826
M73 Q6 S7
G1 F1200.000
G1 X137.886 Y100.990 E0.03704
G1 X137.342 Y100.990 E0.01742
G1 X138.535 Y102.183 E0.05400
G1 X138.535 Y102.727 E0.01742
G1 X136.798 Y100.990 E0.07864
M73 P6 R7
G1 X136.253 Y100.990 E0.01742
G1 X138.535 Y103.272 E0.10327
G1 X138.535 Y103.816 E0.01742
G1 X135.709 Y100.990 E0.12791
G1 X135.165 Y100.990 E0.01742
G1 X138.535 Y104.360 E0.15255
G1 X138.535 Y104.905 E0.01742
G1 X134.620 Y100.990 E0.17719
G1 X134.076 Y100.990 E0.01742
G1 X138.535 Y105.449 E0.20183
G1 X138.535 Y105.993 E0.01742
G1 X133.362 Y100.820 E0.23415
;WIPE_START
G1 F8640.000
G1 X135.689 Y103.148 E-0.76000
;WIPE_END
G1 E-0.04000 F2100.000
G1 Z0.600 F10800.000
G1 X134.258 Y102.261
G1 Z0.200
G1 E0.80000 F2100.000
G1 F1200.000
G1 X132.987 Y100.990 E0.05751
G1 X132.443 Y100.990 E0.01742
G1 X133.374 Y101.921 E0.04213
G1 X133.118 Y101.912 E0.00817
G1 X132.851 Y101.943 E0.00860
G1 X131.899 Y100.990 E0.04313
G1 X131.354 Y100.990 E0.01742
G1 X132.401 Y102.036 E0.04736
G1 X132.000 Y102.180 E0.01362
G1 X130.810 Y100.990 E0.05386
G1 X130.266 Y100.990 E0.01742
G1 X131.646 Y102.371 E0.06249
G1 X131.503 Y102.453 E0.00530
G1 X131.326 Y102.595 E0.00724
G1 X129.721 Y100.990 E0.07263
G1 X129.177 Y100.990 E0.01742
G1 X131.040 Y102.853 E0.08432
G1 X130.790 Y103.148 E0.01236
G1 X128.633 Y100.990 E0.09766
G1 X128.088 Y100.990 E0.01742
G1 X130.575 Y103.477 E0.11256
G1 X130.394 Y103.840 E0.01300
G1 X127.544 Y100.990 E0.12902
G1 X126.999 Y100.990 E0.01742
G1 X130.260 Y104.251 E0.14760
M73 Q7 S7
G1 X130.198 Y104.546 E0.00966
G1 X130.186 Y104.720 E0.00559
G1 X126.960 Y101.494 E0.14601
M73 P7 R7
G1 X126.960 Y102.039 E0.01742
G1 X130.374 Y105.453 E0.15455
;WIPE_START
G1 F8640.000
G1 X128.047 Y103.126 E-0.76000
;WIPE_END
G1 E-0.04000 F2100.000
G1 Z0.600 F10800.000
G1 X135.997 Y104.000
G1 Z0.200
G1 E0.80000 F2100.000
G1 F1200.000
G1 X138.535 Y106.538 E0.11488
G1 X138.535 Y107.082 E0.01742
G1 X136.337 Y104.884 E0.09951
G1 X136.337 Y105.240 E0.01139
G1 X136.313 Y105.405 E0.00534
G1 X138.535 Y107.626 E0.10056
G1 X138.535 Y108.171 E0.01742
G1 X136.218 Y105.854 E0.10488
G1 X136.171 Y106.026 E0.00571
G1 X136.073 Y106.253 E0.00791
G1 X138.361 Y108.541 E0.10358
G1 X138.089 Y108.813 E0.01232
G1 X135.884 Y106.608 E0.09980
G1 X135.662 Y106.930 E0.01252
G1 X137.741 Y109.010 E0.09414
G1 X137.197 Y109.010 E0.01742
G1 X135.403 Y107.217 E0.08118
G1 X135.109 Y107.466 E0.01236
G1 X136.653 Y109.010 E0.06987
G1 X136.108 Y109.010 E0.01742
G1 X134.784 Y107.686 E0.05995
G1 X134.416 Y107.862 E0.01306
G1 X135.564 Y109.010 E0.05195
G1 X135.020 Y109.010 E0.01742
G1 X134.006 Y107.997 E0.04587
G1 X133.542 Y108.077 E0.01508
G1 X134.475 Y109.010 E0.04225
G1 X133.931 Y109.010 E0.01742
G1 X132.805 Y107.884 E0.05096
;WIPE_START
G1 F8640.000
G1 X133.931 Y109.010 E-0.36769
G1 X134.475 Y109.010 E-0.12569
G1 X133.659 Y108.194 E-0.26662
;WIPE_END
G1 E-0.04000 F2100.000
G1 Z0.600 F10800.000
G1 X133.556 Y109.180
G1 Z0.200
G1 E0.80000 F2100.000
G1 F1200.000
G1 X132.319 Y107.942 E0.05600
G1 X131.926 Y107.790 E0.01349
G1 X131.550 Y107.579 E0.01380
G1 X131.165 Y107.278 E0.01563
G1 X130.869 Y106.964 E0.01380
G1 X130.647 Y106.658 E0.01212
G1 X130.420 Y106.231 E0.01548
G1 X130.317 Y105.941 E0.00984
G1 X126.960 Y102.583 E0.15199
G1 X126.960 Y103.127 E0.01742
G1 X132.842 Y109.010 E0.26627
M73 P8 R7
M73 Q8 S7
G1 X132.298 Y109.010 E0.01742
G1 X126.960 Y103.672 E0.24163
G1 X126.960 Y104.216 E0.01742
G1 X131.754 Y109.010 E0.21699
G1 X131.209 Y109.010 E0.01742
G1 X126.960 Y104.760 E0.19235
G1 X126.960 Y105.305 E0.01742
G1 X130.665 Y109.010 E0.16771
G1 X130.121 Y109.010 E0.01742
G1 X126.960 Y105.849 E0.14308
G1 X126.960 Y106.393 E0.01742
G1 X129.576 Y109.010 E0.11844
G1 X129.032 Y109.010 E0.01742
G1 X126.960 Y106.938 E0.09380
G1 X126.960 Y107.482 E0.01742
G1 X128.488 Y109.010 E0.06916
G1 X127.943 Y109.010 E0.01742
G1 X126.960 Y108.026 E0.04453
G1 X126.960 Y108.571 E0.01742
G1 X127.569 Y109.180 E0.02757
; stop printing object LED Strip Clip.stl id:0 copy 0
M106 S84.15
;LAYER_CHANGE
;Z:0.4
;HEIGHT:0.2
;BEFORE_LAYER_CHANGE
G92 E0.0
;0.4


;WIPE_START
G1 F8640.000
G1 X126.960 Y108.571 E-0.19889
G1 X126.960 Y108.026 E-0.12569
G1 X127.943 Y109.010 E-0.32123
G1 X128.438 Y109.010 E-0.11419
;WIPE_END
G1 E-0.04000 F2100.000
G1 Z0.600 F10800.000
;AFTER_LAYER_CHANGE
;0.4
M104 S210 ; set temperature
G1 X139.359 Y97.363
G1 Z0.400
G1 E0.80000 F2100.000
;TYPE:Skirt
;WIDTH:0.42
G1 F2630
G1 X140.234 Y97.925 E0.03258
G1 X141.870 Y99.623 E0.07393
G1 X142.201 Y100.271 E0.02282
G1 X142.351 Y100.983 E0.02282
G1 X142.359 Y108.835 E0.24619
G1 X142.279 Y109.468 E0.02001
G1 X142.041 Y110.095 E0.02103
G1 X141.658 Y110.646 E0.02103
G1 X140.169 Y112.134 E0.06603
G1 X139.497 Y112.577 E0.02523
G1 X138.939 Y112.767 E0.01848
G1 X138.358 Y112.834 E0.01835
G1 X110.421 Y112.832 E0.87593
M73 P8 R6
M73 Q9 S7
G1 X109.682 Y112.697 E0.02358
G1 X109.009 Y112.369 E0.02345
G1 X108.447 Y111.870 E0.02358
G1 X108.043 Y111.241 E0.02345
G1 X107.857 Y110.703 E0.01784
G1 X107.787 Y110.138 E0.01784
G1 X107.799 Y99.654 E0.32872
M73 P9 R6
G1 X107.959 Y98.961 E0.02231
G1 X108.293 Y98.328 E0.02243
G1 X108.779 Y97.803 E0.02243
G1 X109.380 Y97.422 E0.02231
G1 X109.934 Y97.233 E0.01835
G1 X110.515 Y97.166 E0.01835
G1 X138.339 Y97.166 E0.87240
M73 Q9 S6
G1 X139.300 Y97.352 E0.03070
G1 X139.223 Y97.715 F10800.000
G1 F2630
G1 X139.980 Y98.204 E0.02825
G1 X141.548 Y99.821 E0.07061
G1 X141.846 Y100.397 E0.02036
G1 X141.977 Y101.033 E0.02036
G1 X141.982 Y108.829 E0.24443
G1 X141.917 Y109.361 E0.01680
G1 X141.709 Y109.916 E0.01858
G1 X141.370 Y110.402 E0.01858
G1 X139.922 Y111.850 E0.06421
G1 X139.311 Y112.247 E0.02284
G1 X138.842 Y112.402 E0.01550
G1 X138.351 Y112.457 E0.01550
G1 X110.449 Y112.455 E0.87484
G1 X109.802 Y112.340 E0.02060
G1 X109.212 Y112.051 E0.02060
G1 X108.723 Y111.613 E0.02060
G1 X108.373 Y111.057 E0.02060
G1 X108.164 Y110.123 E0.03001
G1 X108.173 Y99.707 E0.32659
G1 X108.311 Y99.096 E0.01965
G1 X108.604 Y98.542 E0.01965
G1 X109.031 Y98.083 E0.01965
G1 X109.563 Y97.753 E0.01965
G1 X110.033 Y97.598 E0.01550
G1 X110.524 Y97.543 E0.01550
G1 X138.339 Y97.543 E0.87211
G1 X139.164 Y97.704 E0.02637
; printing object LED Strip Clip.stl id:0 copy 0
;WIPE_START
G1 F8640.000
G1 X139.980 Y98.204 E-0.22098
G1 X141.548 Y99.821 E-0.51998
G1 X141.586 Y99.894 E-0.01905
;WIPE_END
G1 E-0.04000 F2100.000
G1 Z0.800 F10800.000
G1 X134.934 Y102.947
G1 Z0.400
G1 E0.80000 F2100.000
M204 S800
;TYPE:Perimeter
;WIDTH:0.45
G1 F1500.000
G1 X135.208 Y103.207 E0.01279
G1 X135.434 Y103.490 E0.01225
G1 X135.572 Y103.710 E0.00881
G1 X135.767 Y104.148 E0.01623
G1 X135.860 Y104.507 E0.01252
G1 X135.896 Y104.764 E0.00881
G1 X135.896 Y105.236 E0.01596
G1 X135.860 Y105.493 E0.00881
G1 X135.769 Y105.844 E0.01225
G1 X135.624 Y106.193 E0.01279
G1 X135.366 Y106.606 E0.01650
G1 X135.121 Y106.884 E0.01252
G1 X134.927 Y107.058 E0.00881
G1 X134.536 Y107.321 E0.01596
G1 X134.303 Y107.436 E0.00881
G1 X133.954 Y107.559 E0.01252
G1 X133.481 Y107.642 E0.01623
G1 X133.221 Y107.651 E0.00881
G1 X132.853 Y107.622 E0.01252
G1 X132.387 Y107.506 E0.01623
G1 X132.146 Y107.408 E0.00881
G1 X131.821 Y107.231 E0.01252
G1 X131.437 Y106.931 E0.01650
M73 Q10 S6
G1 X131.187 Y106.659 E0.01252
G1 X131.034 Y106.448 E0.00881
G1 X130.809 Y106.025 E0.01623
G1 X130.688 Y105.666 E0.01279
G1 X130.622 Y105.311 E0.01225
G1 X130.604 Y105.051 E0.00881
G1 X130.637 Y104.581 E0.01596
G1 X130.691 Y104.326 E0.00881
G1 X130.806 Y103.983 E0.01225
G1 X130.975 Y103.645 E0.01279
G1 X131.257 Y103.257 E0.01623
G1 X131.438 Y103.070 E0.00881
G1 X131.723 Y102.835 E0.01252
G1 X132.146 Y102.591 E0.01650
G1 X132.492 Y102.461 E0.01252
G1 X132.737 Y102.400 E0.00854
G1 X133.096 Y102.353 E0.01225
G1 X133.474 Y102.357 E0.01279
G1 X133.946 Y102.440 E0.01623
G1 X134.193 Y102.520 E0.00881
G1 X134.530 Y102.674 E0.01252
M73 P10 R6
G1 X134.884 Y102.913 E0.01447
M204 S1000
G1 X134.657 Y103.251 F10800.000
M204 S800
;TYPE:External perimeter
